!!!!SEGMENT: s-uu--vok-mus-i-hs-22-5a_forster-kaspar--in-tribulationibus.krn
!!!cenid: 16xx:1710
!!!COM: Förster, Kaspar
!!!COM-rismid: pe30006147
!!!CDT:
!!!CNT:
!!!OTL: In tribulationibus
!!!PDT: 1687
!!!AGN:
!!!SMS-siglum: S-Uu
!!!SMS-shelfmark: Vok. mus. i hs. 22:5a
!!!SMS-shelfwork: W
!!!SMS-variant:
!!!SMS-altvar:
!!!NIFC-rismid: 190008719
!!!URL-scan: https://www2.musik.uu.se/duben/presentationSource1.php?Select_Dnr=833
!!!ONB-nifc: UWAGA: poszczególne partie dostępne po kliknięciu w „browse part”. Informacje nt stron tytułowych w opisie na stronie lub na RISM.
!!!key:
**kern	**fba	**kern	**kern	**kern	**kern	**kern	**text	**kern	**text	**kern	**text	**kern	**text
*part10	*part9	*part8	*part7	*part6	*part5	*part4	*part4	*part3	*part3	*part2	*part2	*part1	*part1
*staff9	*staff9	*staff8	*staff7	*staff6	*staff5	*staff4	*staff4	*staff3	*staff3	*staff2	*staff2	*staff1	*staff1
*I"Bass. Continu:	*	*I"Viola.	*I"Alto Viola	*I"Violino 2do	*I"Violino 1	*I"Basso.	*	*I"Tenore.	*	*I"Alto	*	*I"Canto.	*
*I'cb	*	*I'vla	*I'a-vla	*I'vl2	*I'vl1	*I'B	*	*I'T	*	*I'A	*	*I'S	*
*Iorgan	*	*Iviola	*Iviola	*Ivioln	*Ivioln	*Ibass	*	*Itenor	*	*Ialto	*	*Isoprn	*
*ICklav	*	*ICstr	*ICstr	*ICstr	*Istr	*ICvox	*	*ICvox	*	*ICvox	*	*ICvox	*
*IGcont	*	*	*	*	*	*	*	*	*	*	*	*	*
*clefF4	*	*clefF4	*clefC3	*clefG2	*clefG2	*clefF4	*	*clefC4	*	*clefC3	*	*clefC1	*
*Trd0c0	*	*	*	*	*	*	*	*	*	*	*	*	*
*k[b-]	*	*k[b-]	*k[b-]	*k[b-]	*k[b-]	*k[b-]	*	*k[b-]	*	*k[b-]	*	*k[b-]	*
*g:	*	*g:	*g:	*g:	*g:	*g:	*	*g:	*	*g:	*	*g:	*
*M2/1	*	*M2/1	*M2/1	*M2/1	*M2/1	*M2/1	*	*M2/1	*	*M2/1	*	*M2/1	*
*met(C|)	*	*met(C|)	*	*met(C|)	*met(C|)	*met(C|)	*	*met(C|)	*	*met(C|)	*	*met(C|)	*
=1-	=1-	=1-	=1-	=1-	=1-	=1-	=1-	=1-	=1-	=1-	=1-	=1-	=1-
!	!	!	!LO:TX:b:i:t=Sonata\nIn tribulationibus	!	!LO:TX:b:i:t=In tribulationibus	!	!	!	!	!	!	!	!
*2\right	*	*	*	*	*	*	*	*	*	*	*	*	*
!LO:TX:a:t=P:problem:# above	!	!	!	!	!	!	!	!	!	!	!	!	!
1D#X	.	4r	4r	4r	4r	0r	.	0r	.	0r	.	0r	.
*	*	*2\right	*2\right	*2\right	*2\right	*2\right	*	*2\right	*	*2\right	*	*2\right	*
.	.	4D/	4d\	4f#X/	4a/	.	.	.	.	.	.	.	.
.	.	4.D/	4.d\	4.f#/	4.a/	.	.	.	.	.	.	.	.
!	!	!LO:TX:t=P:problem:kreska pseudotaktowa	!	!LO:TX:t=P:problem:kreska pseudotaktowa	!LO:TX:t=P:problem:kreska pseudotaktowa	!	!	!	!	!	!	!	!
.	.	8D/	8d\	8f#/	8a/	.	.	.	.	.	.	.	.
!LO:TX:a:t=P:problem:# above	!	!	!	!	!	!	!	!	!	!	!	!	!
2D#X/	.	4.D/	4A/	4.f#/	4.a/	.	.	.	.	.	.	.	.
.	.	.	4d\	.	.	.	.	.	.	.	.	.	.
.	.	8D/	.	8f#/	8a/	.	.	.	.	.	.	.	.
!	!	!	!	!LO:TX:t=P:problem:kreska pseudotaktowa	!LO:TX:t=P:problem:kreska pseudotaktowa	!	!	!	!	!	!	!	!
2E-X\	6	2E-X\	4B-/	2g/	2cc\	.	.	.	.	.	.	.	.
.	.	.	8e-X\L	.	.	.	.	.	.	.	.	.	.
.	.	.	8d\J	.	.	.	.	.	.	.	.	.	.
=2-	=2-	=2-	=2-	=2-	=2-	=2-	=2-	=2-	=2-	=2-	=2-	=2-	=2-
!LO:N:acc=#:global	!	!LO:N:acc=#:global	!	!	!	!	!	!	!	!	!	!	!
2En\	6\	4.En\	4.c#X/	4.g/	4.cc#X\	0r	.	0r	.	0r	.	0r	.
.	.	8E\	8c#/	8f#X/	8dd\	.	.	.	.	.	.	.	.
!LO:TX:a:t=P:problem:# above	!	!	!	!	!	!	!	!	!	!	!	!	!
2D#X/	.	2D/	4A/	4f#/	4dd\	.	.	.	.	.	.	.	.
.	.	.	8r	8r	8r	.	.	.	.	.	.	.	.
!	!	!	!	!LO:TX:t=P:problem:kreska pseudotaktowa	!LO:TX:t=P:problem:kreska pseudotaktowa	!	!	!	!	!	!	!	!
.	.	.	8A/	8f#/	8dd\	.	.	.	.	.	.	.	.
4G\	.	8r	8d\L	8g/L	8b-/L	.	.	.	.	.	.	.	.
.	.	8G\L	8d\J	8g/	8b-/J	.	.	.	.	.	.	.	.
2C/	.	8C/	8.c#\L	8.e/	8.g/L	.	.	.	.	.	.	.	.
.	.	8C/J	.	.	.	.	.	.	.	.	.	.	.
.	.	.	16c#\Jk	16e/Jk	16g/Jk	.	.	.	.	.	.	.	.
.	.	8.C/L	4G/	4e/	4g/	.	.	.	.	.	.	.	.
.	.	16C/Jk	.	.	.	.	.	.	.	.	.	.	.
4AA/	6	8AA/L	8r	8r	8r	.	.	.	.	.	.	.	.
!	!	!	!	!LO:TX:t=P:problem:kreska pseudotaktowa	!LO:TX:t=P:problem:kreska pseudotaktowa	!	!	!	!	!	!	!	!
.	.	8AA/J	8F/	8a/	8cc#\	.	.	.	.	.	.	.	.
=3-	=3-	=3-	=3-	=3-	=3-	=3-	=3-	=3-	=3-	=3-	=3-	=3-	=3-
2Dny/	.	4D/	4A/	4fny/	4a/	0r	.	0r	.	1r	.	1r	.
.	.	4D/	4A/	4f/	4dd\	.	.	.	.	.	.	.	.
!LO:TX:a:t=P:problem:# above	!	!	!	!	!	!	!	!	!	!	!	!	!
2AA#X/	4	2AA/	2A/	4.e/	4.dd\	.	.	.	.	.	.	.	.
!	!	!	!	!	!LO:TX:t=P:problem:kreska pseudotaktowa	!	!	!	!	!	!	!	!
!	!	!	!	!LO:TX:t=P:problem:kreska pseudotaktowa	!LO:TX:a:t=P:problem:# above	!	!	!	!	!	!	!	!
.	.	.	.	8e/	8cc#X\	.	.	.	.	.	.	.	.
!LO:TX:a:t=P:problem:# above	!	!	!	!	!	!	!	!	!	!	!	!	!
1D#X	.	2DD/	2A/	2f#X/	2dd\	.	.	.	.	4r	.	4r	.
.	.	.	.	.	.	.	.	.	.	4f#X\	In	4a\	In
.	.	2r	2r	2r	2r	.	.	.	.	4.f#\	tri-	4.a\	tri-
.	.	.	.	.	.	.	.	.	.	8f#\	-bu-	8a\	-bu-
=4-	=4-	=4-	=4-	=4-	=4-	=4-	=4-	=4-	=4-	=4-	=4-	=4-	=4-
!LO:TX:a:t=P:problem:# above	!	!LO:TX:b:i:t=5.	!	!	!	!	!	!	!	!	!	!	!
2D#X/	.	0r	0r	0r	0r	1r	.	1r	.	4.f#X\	-la-	4.a\	-la-
.	.	.	.	.	.	.	.	.	.	8f#\	-ti-	8a\	-ti-
*	*	*	*	*	*	*	*	*	*	*2\right	*	*2\right	*
2E-X\	6	.	.	.	.	.	.	.	.	2..g\	-o-	(2cc\	-o-
2En#X\	6	.	.	.	.	2r	.	2r	.	.	.	4.cc#X\)	.
.	.	.	.	.	.	.	.	.	.	8f#X\	-ni-	8dd\	-ni-
!LO:TX:a:t=P:problem:# above	!	!	!	!	!	!	!	!	!	!	!	!	!
2D#X/	.	.	.	.	.	4r	.	4r	.	2f#\	-bus	2dd\	-bus
.	.	.	.	.	.	4D/	In	4F#X/	In	.	.	.	.
=5-	=5-	=5-	=5-	=5-	=5-	=5-	=5-	=5-	=5-	=5-	=5-	=5-	=5-
!LO:TX:a:t=P:problem:# above	!	!	!	!	!	!	!	!	!	!	!	!	!
2D#X/	.	0r	0r	0r	0r	4.D/	tri-	4.F#X/	tri-	1r	.	2r	.
.	.	.	.	.	.	8D/	-bu-	8F#/	-bu-	.	.	.	.
!LO:TX:a:t=P:problem:# above	!	!	!	!	!	!	!	!	!	!	!	!	!
2D#X/	6	.	.	.	.	4.D/	-la-	4.F#/	-la-	.	.	8r	.
.	.	.	.	.	.	.	.	.	.	.	.	8dd\L	ad
.	.	.	.	.	.	.	.	.	.	.	.	8b-\	qvem
.	.	.	.	.	.	8D/	-ti-	8F#/	-ti-	.	.	8b-\J	cla-
!	!	!	!	!	!	!	!	!	!	!	!	!LO:LB:g=original	!
2E-X\	.	.	.	.	.	2E-X\	-o-	2..G/	-o-	8r	.	4.g/	-ma-
.	.	.	.	.	.	.	.	.	.	8g\L	ad	.	.
.	.	.	.	.	.	.	.	.	.	8e-X\	qvem	.	.
.	.	.	.	.	.	.	.	.	.	8e-\J	cla-	8g/	-bi-
!	!	!	!	!	!	!LO:N:acc=#:global	!	!	!	!	!	!	!
2E#X\	6	.	.	.	.	4.En\	.	.	.	4.c/	-ma-	4g/	-m(us)
.	.	.	.	.	.	.	.	.	.	.	.	4r	.
.	.	.	.	.	.	8F\	-ni-	8A/	-ni-	8c/	-bi-	.	.
=6-	=6-	=6-	=6-	=6-	=6-	=6-	=6-	=6-	=6-	=6-	=6-	=6-	=6-
!	!	!	!LO:SIC:v:t=custos b-	!	!	!	!	!	!	!	!	!	!
4F\	.	1r	0r	1r	1r	8F\	-b(us)	2A/	-b(us)	8c/L	-m(us)	2r	.
!	!	!	!LO:LB:g=original	!	!	!	!	!	!	!	!	!	!
.	.	.	.	.	.	8F\	ad	.	.	8a\	ad	.	.
!LO:SIC:v:t=custos BB-	!	!	!	!	!	!	!	!	!	!	!	!	!
4Dny/	.	.	.	.	.	8D\	qvem	.	.	8fny\	q(ue)	.	.
!LO:LB:g=original	!	!	!	!	!	!	!	!	!	!LO:SIC:v:t=custos d	!	!	!
.	.	.	.	.	.	8D\	cla-	.	.	8f\J	cla-	.	.
!	!	!	!	!	!	!	!	!	!	!LO:LB:g=original	!	!	!
2BB-/	6 5	.	.	.	.	8.BB-/	-ma-	8r	.	4.d\	-ma-	8r	.
*	*	*	*	*	*	*	*	*	*	*	*	*	*ij
.	.	.	.	.	.	.	.	8B-\	ad	.	.	8dd\L	ad
.	.	.	.	.	.	16BB-/	-bi-	.	.	.	.	.	.
.	.	.	.	.	.	8BB-/	-m(us)	8G/	qvem	.	.	8b-\	qvem
!	!	!	!	!	!	!	!	!	!	!	!	!LO:SIC:v:t=custos g	!
.	.	.	.	.	.	8BB-/	cla-	8Fny/	cla-	16eny\LL	.	8a\J	cla-
.	.	.	.	.	.	.	.	.	.	16f\JJ	.	.	.
2C/	4 3	2r	.	2r	2r	4.C/	-ma-	4.F/	-ma-	4.c/	.	4.g/	-ma-
!	!	!	!	!	!LO:LB:g=original	!	!	!	!	!	!	!	!
!	!	!	!	!LO:LB:g=original	!	!LO:SIC:v:t=custos FF	!	!	!	!	!	!	!
.	.	.	.	.	.	8C/	-bi-	8E/	-bu-	8c/	-bi-	8g/	-bi-
!	!	!	!	!	!	!LO:LB:g=original	!	!	!	!	!	!	!
2FF/	6 5	8r	.	8r	8r	2FF/	-mus	2F/	-m(us)	2c/	-mus	2a\	-m(us)
*	*	*	*	*	*	*	*	*	*	*	*	*	*Xij
.	.	8F\L	.	8a/L	8ccny\L	.	.	.	.	.	.	.	.
.	.	8F\	.	8fny/	8a\	.	.	.	.	.	.	.	.
!	!	!LO:SIC:v:t=custos BB-	!	!LO:TX:t=P:problem:kreska pseudotaktowa	!LO:TX:t=P:problem:kreska pseudotaktowa	!	!	!	!	!	!	!	!
.	.	8FF/J	.	8f/J	8a\J	.	.	.	.	.	.	.	.
!	!	!LO:LB:g=original	!	!	!	!	!	!	!	!	!	!	!
=7-	=7-	=7-	=7-	=7-	=7-	=7-	=7-	=7-	=7-	=7-	=7-	=7-	=7-
2BB-/	6 4	4.BB-/	8r	4d/	8.f/L	0r	.	1r	.	1r	.	0r	.
.	.	.	8b-\L	.	.	.	.	.	.	.	.	.	.
.	.	.	.	.	32e/LL	.	.	.	.	.	.	.	.
.	.	.	.	.	32f/JJJ	.	.	.	.	.	.	.	.
.	.	.	8g\	4dd\	8.g/L	.	.	.	.	.	.	.	.
.	.	8BB-/	8d\J	.	.	.	.	.	.	.	.	.	.
.	.	.	.	.	32f/LL	.	.	.	.	.	.	.	.
.	.	.	.	.	32g/JJJ	.	.	.	.	.	.	.	.
!LO:TX:a:t=P:problem:# above	!	!	!	!	!	!	!	!	!	!	!	!	!
2AA#X/	5	4.AA/	4.f\	4.dd\	4.a/	.	.	.	.	.	.	.	.
!	!	!	!	!LO:TX:t=P:problem:kreska pseudotaktowa	!LO:TX:t=P:problem:kreska pseudotaktowa	!	!	!	!	!	!	!	!
.	.	8AA/	8eny\	8cc#X\	8a/	.	.	.	.	.	.	.	.
!LO:TX:t=P:problem:kreska pseudotaktowa	!	!	!	!	!	!	!	!	!	!	!	!	!
!LO:TX:a:t=P:problem:# above	!	!	!	!	!	!	!	!	!	!	!	!	!
1AA#X	.	2AA/	2e\	2cc#\	2a/	.	.	4r	.	4r	.	.	.
!	!	!	!	!	!	!	!	!LO:TX:a:t=P:problem:# above	!	!	!	!	!
.	.	.	.	.	.	.	.	2c#X\	in	2e\	in	.	.
.	.	2r	2r	2r	2r	.	.	.	.	.	.	.	.
!	!	!	!	!	!	!	!	!LO:SIC:v:t=custos d	!	!	!	!	!
.	.	.	.	.	.	.	.	4c#\	an-	4e\	an-	.	.
!	!	!	!	!	!	!	!	!LO:LB:g=original	!	!	!	!	!
=8-	=8-	=8-	=8-	=8-	=8-	=8-	=8-	=8-	=8-	=8-	=8-	=8-	=8-
2BB-X/	6	0r	0r	0r	0r	1r	.	2..d\	-gu-	(2g\	-gu	1r	.
2BB#X/	6\	.	.	.	.	.	.	.	.	4.g#X\)	.	.	.
.	.	.	.	.	.	.	.	8c#X\	-ſtil-	8a\	-ſti-	.	.
!LO:TX:a:t=P:problem:# above	!	!	!	!	!	!	!	!	!	!	!	!	!
2AA#X/	.	.	.	.	.	2r	.	2c#\	-lis	8a\	-is	2r	.
.	.	.	.	.	.	.	.	.	.	8a\	ad	.	.
.	.	.	.	.	.	.	.	.	.	8f\	qvem	.	.
.	.	.	.	.	.	.	.	.	.	8f\	cla-	.	.
2BBny/	6	.	.	.	.	8r	.	2r	.	4.d\	-ma-	8r	.
.	.	.	.	.	.	8B-X\	ad	.	.	.	.	8dd\L	ad
.	.	.	.	.	.	8G\	qvem	.	.	.	.	8b-\	qvem
.	.	.	.	.	.	8F\	cla-	.	.	8d\	-bi-	8a\J	cla-
=9-	=9-	=9-	=9-	=9-	=9-	=9-	=9-	=9-	=9-	=9-	=9-	=9-	=9-
2C/	.	0r	0r	0r	0r	4.E\	-ma-	2r	.	2.e\	-m(us)	4.g/	-ma-
.	.	.	.	.	.	8D/	-bi-	.	.	.	.	8g/	-bi-
2C/	6 5	.	.	.	.	4C/	-m(us)	8r	.	.	.	4g/	-m(us)
.	.	.	.	.	.	.	.	8cny\	ad	.	.	.	.
*	*	*	*	*	*	*	*	*	*	*	*	*	*ij
.	.	.	.	.	.	4C/	cla-	8A\	qvem	4e\	cla-	4ccny\	ad
.	.	.	.	.	.	.	.	8G/	cla-	.	.	.	.
!LO:TX:a:t=P:problem:# above	!	!	!	!	!	!	!	!	!	!	!	!	!
1D#X	6 4	.	.	.	.	2.D/	-ma-	4F#X/	-ma-	2.d\	-ma-	4cc\	qvem
.	5	.	.	.	.	.	.	2G/	.	.	.	4b-\	cla-
.	.	.	.	.	.	.	.	.	.	.	.	4.a\	-ma-
.	.	.	.	.	.	4D/	-bi-	4F#X/	-bi-	4d\	-bi-	.	.
.	.	.	.	.	.	.	.	.	.	.	.	8a\	-bi-
=10-	=10-	=10-	=10-	=10-	=10-	=10-	=10-	=10-	=10-	=10-	=10-	=10-	=10-
!LO:TX:a:t=P:problem:# above	!	!	!	!	!	!	!	!	!	!	!	!LO:N:acc=#:global	!
2GG#X/	.	4r	4r	4r	4r	2GG/	-m(us)	2G/	-m(us)	2d\	-m(us)	2bn\	-m(us)
*	*	*	*	*	*	*	*	*	*	*	*	*	*Xij
!	!	!	!	!LO:N:acc=#:global	!	!	!	!	!	!	!	!	!
.	.	4.G\	4.g\	4.bn/	4.dd\	.	.	.	.	.	.	.	.
!LO:TX:a:t=P:problem:# above	!	!	!	!	!	!	!	!	!	!LO:SIC:v:t=custos g	!	!	!
2G#X\	.	.	.	.	.	2r	.	2r	.	2r	.	2r	.
!	!	!	!	!	!	!	!	!	!	!LO:LB:g=original	!	!	!
.	.	8G\L	8g\L	8b/L	8dd\L	.	.	.	.	.	.	.	.
.	.	8G\	8d\	8b/	8dd\	.	.	.	.	.	.	.	.
!	!	!	!	!LO:TX:t=P:problem:kreska pseudotaktowa	!LO:TX:t=P:problem:kreska pseudotaktowa	!	!	!	!	!	!	!	!
.	.	8G\J	8g\J	8b/J	8dd\J	.	.	.	.	.	.	.	.
2A-X\	6	2A-X\	4cny/	2..ccny\	(2ff\	1r	.	1r	.	1r	.	1r	.
.	.	.	4f\	.	.	.	.	.	.	.	.	.	.
2A#X\	6	4.An\	2c/	.	4.ff#X\)	.	.	.	.	.	.	.	.
!	!	!	!	!	!LO:TX:t=P:problem:kreska pseudotaktowa	!	!	!	!	!	!	!	!
.	.	8A\	.	8b#X/	8gg\	.	.	.	.	.	.	.	.
=11-	=11-	=11-	=11-	=11-	=11-	=11-	=11-	=11-	=11-	=11-	=11-	=11-	=11-
!LO:TX:a:t=P:problem:# above	!	!	!	!	!	!	!	!	!	!	!	!	!
4G#X\	.	8G\L	4d\	8bny/L	4gg\	0r	.	0r	.	0r	.	0r	.
.	.	8G\	.	8eeX\	.	.	.	.	.	.	.	.	.
8E-X\L	.	8E-X\	4r	8cc\J	8r	.	.	.	.	.	.	.	.
8Dny\J	.	8D\J	.	8r	8dd\	.	.	.	.	.	.	.	.
!LO:TX:a:t=P:problem:♭ above	!	!	!	!	!	!	!	!	!	!	!	!	!
2C-/	.	8.C/L	2r	8r	8ee-X\L	.	.	.	.	.	.	.	.
.	.	.	.	8ee-X\L	8gg\	.	.	.	.	.	.	.	.
.	.	16C/Jk	.	.	.	.	.	.	.	.	.	.	.
.	.	4C/	.	8cc\	8ffny\	.	.	.	.	.	.	.	.
!	!	!	!	!LO:TX:t=P:problem:kreska pseudotaktowa	!LO:TX:t=P:problem:kreska pseudotaktowa	!	!	!	!	!	!	!	!
.	.	.	.	8cc\J	8ee-X\J	.	.	.	.	.	.	.	.
!	!	!	!	!	!LO:LB:g=original	!	!	!	!	!	!	!	!
!	!	!	!	!LO:LB:g=original	!	!	!	!	!	!	!	!	!
2D/	.	8r	8r	8.a/L	8dd\L	.	.	.	.	.	.	.	.
.	.	8D/L	8f\L	.	16dd\L	.	.	.	.	.	.	.	.
.	.	.	.	16a/Jk	16cc\JJ	.	.	.	.	.	.	.	.
.	.	8D/	8d\	4a/	8b-/L	.	.	.	.	.	.	.	.
.	.	8D/J	8d\J	.	8a/J	.	.	.	.	.	.	.	.
2E-X\	.	8.E-X\L	8.B-/L	8r	8.g/L	.	.	.	.	.	.	.	.
.	.	.	.	8ee-X\L	.	.	.	.	.	.	.	.	.
.	.	16E-\Jk	16B-/Jk	.	16g/Jk	.	.	.	.	.	.	.	.
!	!	!LO:SIC:v:t=custos En	!	!	!	!	!	!	!	!	!	!	!
.	.	4E-\	4B-/	8bb-\	8g/L	.	.	.	.	.	.	.	.
!	!	!LO:LB:g=original	!	!LO:TX:t=P:problem:kreska pseudotaktowa	!LO:TX:t=P:problem:kreska pseudotaktowa	!	!	!	!	!	!	!	!
.	.	.	.	8gg\J	8ee-X\J	.	.	.	.	.	.	.	.
=12-	=12-	=12-	=12-	=12-	=12-	=12-	=12-	=12-	=12-	=12-	=12-	=12-	=12-
!LO:SIC:v:t=custos F	!	!	!	!	!	!	!	!	!	!	!	!	!
2E#X\	6	8r	8r	4.ee#X\	4.cc\	2r	.	2r	.	0r	.	2r	.
!LO:LB:g=original	!	!	!	!	!	!	!	!	!	!	!	!	!
.	.	8E#X\L	8G/L	.	.	.	.	.	.	.	.	.	.
.	.	8Eny\	8G/	.	.	.	.	.	.	.	.	.	.
!	!	!	!LO:SIC:v:t=custos A	!	!	!	!	!	!	!	!	!	!
.	.	8E\J	8G/J	8eeny\	8cc\	.	.	.	.	.	.	.	.
!	!	!	!LO:LB:g=original	!	!	!	!	!	!	!	!	!	!
2F\	.	8.F\L	8.A/L	8.cc\L	8.a/L	4r	.	4r	.	.	.	4r	.
.	.	16F\Jk	16A/Jk	16cc\Jk	16a/Jk	.	.	.	.	.	.	.	.
!	!	!	!	!LO:TX:t=P:problem:kreska pseudotaktowa	!	!	!	!	!	!	!	!	!
.	.	4F\	4A/	4cc\	4a/	4F\	in	4A/	in	.	.	4cc\	in
!	!	!	!	!	!	!	!	!LO:N:acc=#:global	!	!	!	!	!
1D	6\	1r	1r	1r	1r	4.D/	per-	4.Bn\	per-	.	.	4.dd\	per-
.	.	.	.	.	.	8D/	-fe-	8B\	-fe-	.	.	8dd\	-fe-
.	.	.	.	.	.	4.D/	-cu-	4.B#X\	-cu-	.	.	4.dd\	-cu-
.	.	.	.	.	.	8C/	-ti-	8c\	-ti-	.	.	8ee-X\	-ti-
=13-	=13-	=13-	=13-	=13-	=13-	=13-	=13-	=13-	=13-	=13-	=13-	=13-	=13-
1C-	.	1r	1r	1r	1r	4.C/	-o-	4.c\	-o-	2r	.	4.ee-X\	-o-
!	!	!	!	!	!	!	!	!	!	!	!	!LO:SIC:v:t=custos ee-	!
.	.	.	.	.	.	8C/	-ni-	8c\	-ni-	.	.	8ee-\	-ni-
!	!	!	!	!	!	!	!	!	!	!	!	!LO:LB:g=original	!
.	.	.	.	.	.	8C/	-b(us)	2c\	-b(us)	8r	.	8ee-X\	-bus
!	!	!	!	!	!	!LO:SIC:v:t=custos C	!	!	!	!	!	!	!
.	.	.	.	.	.	8C/	ad	.	.	8gny\	ad	8ee-\	ad
!	!	!	!	!	!	!LO:LB:g=original	!	!	!	!	!	!	!
.	.	.	.	.	.	8C/	qvem	.	.	8e-X\	qvem	8cc\	qvem
.	.	.	.	.	.	8C/	cla-	.	.	8e-\	cla-	8cc\	cla-
!LO:TX:a:t=P:problem:# above	!	!	!	!	!	!	!	!	!	!	!	!	!
2G#X\	.	4r	4r	4r	4r	8.G\	-ma-	1r	.	8.d\	-ma-	8.b#X\	-ma-
.	.	.	.	.	.	16G\	-bi-	.	.	16d\	-bi-	16bny\	-bi-
.	.	4G\	8d\L	4b#X/	4dd\	4G\	-m(us)	.	.	4d\	-m(us)	4b\	-mus
.	.	.	8g\J	.	.	.	.	.	.	.	.	.	.
4E-X\	.	4E-X\	4g\	4cc\	4ee-X\	2r	.	.	.	2r	.	2r	.
!	!	!LO:TX:t=P:problem:kreska pseudotaktowa	!	!LO:TX:t=P:problem:kreska pseudotaktowa	!LO:TX:t=P:problem:kreska pseudotaktowa	!	!	!	!	!	!	!	!
4BB#X/	.	4BBn/	4g\	4dd\	4dd\	.	.	.	.	.	.	.	.
=14-	=14-	=14-	=14-	=14-	=14-	=14-	=14-	=14-	=14-	=14-	=14-	=14-	=14-
2C-/	.	8.C/L	8.g\L	8.cc\L	8.ee-X\L	0r	.	1r	.	0r	.	0r	.
!	!	!	!	!	!	!	!	!LO:LB:g=original	!	!	!	!	!
.	.	16C/Jk	16g\Jk	16cc\J	16ee-\Jk	.	.	.	.	.	.	.	.
.	.	8C/L	8g\L	8cc\Lk	8ee-\L	.	.	.	.	.	.	.	.
.	.	8C/J	8g\J	8cc\J	8ee-\J	.	.	.	.	.	.	.	.
!	!	!	!	!	!LO:TX:t=P:problem:kreska pseudotaktowa	!	!	!	!	!	!	!	!
2A-X\	.	4AA-X/	4a-X\	4cc\	2cc\	.	.	.	.	.	.	.	.
!	!	!	!	!LO:TX:t=P:problem:kreska pseudotaktowa	!	!	!	!	!	!	!	!	!
.	.	4A-X\	2g\	4cc\	.	.	.	.	.	.	.	.	.
2A-\	6	2A-\	.	3...cc\	4.ee-X\	.	.	8r	.	.	.	.	.
.	.	.	.	.	.	.	.	8c\	ad	.	.	.	.
.	.	.	4f\	.	.	.	.	8c\	qvem	.	.	.	.
.	.	.	.	.	8dd\	.	.	8e-X\	cla-	.	.	.	.
!LO:TX:a:t=P:problem:# above	!	!	!	!	!	!	!	!	!	!	!	!	!
2G#X\	6	2G\	2g\	.	8ee-X\L	.	.	8.B#X\	-ma-	.	.	.	.
.	.	.	.	8b#X\J	8dd\J	.	.	.	.	.	.	.	.
.	.	.	.	.	.	.	.	16Bny\	-bi-	.	.	.	.
!	!	!	!	!	!LO:TX:t=P:problem:kreska pseudotaktowa	!	!	!	!	!	!	!	!
.	.	.	.	4bny\	4dd\	.	.	4B\	-m(us)	.	.	.	.
!	!	!	!	!	!LO:LB:g=original	!	!	!	!	!	!	!	!
=15-	=15-	=15-	=15-	=15-	=15-	=15-	=15-	=15-	=15-	=15-	=15-	=15-	=15-
2E-X\	.	0r	0r	0r	0r	4E-X\	ni-	4e-X\	ni-	4g\	ni-	4b-X\	ni-
.	.	.	.	.	.	8E-\	-ſi	8e-\	-ſi	8g\	-ſi	8b-\L	-ſi
.	.	.	.	.	.	8E-\	ad	8e-\	ad	8g\	ad	8b-\J	ad
2BBny/	.	.	.	.	.	2BB-/	te	2d\	te	2f\	te	2b-\	te
2BB#X/	6 5	.	.	.	.	4BB#X/	De-	4d\	De-	4f\	De-	4g/	De-
.	.	.	.	.	.	4BBny/	-us	4d\	-us	4f\	-us	4g/	-us
2Cny/	.	.	.	.	.	2C/	no-	2c\	no-	(4f\	noſ-	2g/	no-
.	.	.	.	.	.	.	.	.	.	4eny\)	.	.	.
=16-	=16-	=16-	=16-	=16-	=16-	=16-	=16-	=16-	=16-	=16-	=16-	=16-	=16-
2F\	.	0r	0r	0r	0r	4FF/	-ſter	2c\	-ſter	4f\	-ter	2a\	-ſter
.	.	.	.	.	.	4F\	pa-	.	.	4a\	pa-	.	.
2E-X\	6	.	.	.	.	8E-X\	-ter	4r	.	8g\	-ter	2r	.
.	.	.	.	.	.	8E-\	mi-	.	.	8g\	mi-	.	.
.	.	.	.	.	.	8E-\	-ſe-	4c\	pa-	8g\	-ſe-	.	.
!	!	!	!	!	!	!LO:SIC:v:t=custos D	!	!	!	!LO:SIC:v:t=custos f	!	!	!
.	.	.	.	.	.	8E-\	-ri-	.	.	8g\	-ri-	.	.
!	!	!	!	!	!	!LO:LB:g=original	!	!	!	!LO:LB:g=original	!	!	!
2D/	6\	.	.	.	.	4.D/	-cor-	8c\	-ter	4.f\	-Cor-	4r	.
.	.	.	.	.	.	.	.	8B#X\	mi-	.	.	.	.
.	.	.	.	.	.	.	.	8Bny\	-ſe-	.	.	4ff\	pa-
.	.	.	.	.	.	8D/	-di-	8B\	-ri	8g\	-di-	.	.
2C/	.	.	.	.	.	4C/	-a-	4.c\	cor-	4g\	-am	8ee-X\	-ter
.	.	.	.	.	.	.	.	.	.	.	.	8ee-\	mi-
.	.	.	.	.	.	8C/	-rum	.	.	8g\	et	8ee-\	-ſe-
!	!	!	!	!	!	!	!	!LO:SIC:v:t=custos c	!	!	!	!LO:SIC:v:t=custos dd	!
.	.	.	.	.	.	8C/	et	8c\	-di-	8g\	Con-	8ee-\	-ri
!	!	!	!	!	!	!	!	!LO:LB:g=original	!	!	!	!LO:LB:g=original	!
=17-	=17-	=17-	=17-	=17-	=17-	=17-	=17-	=17-	=17-	=17-	=17-	=17-	=17-
2FF#X/	6 5	0r	0r	0r	0r	8FF#X/	con-	2c\	-a-	8a\	-ſo-	4.dd\	cor-
.	.	.	.	.	.	8FF#/	-ſo-	.	.	8a\	-la-	.	.
.	.	.	.	.	.	8FF#/	-la-	.	.	8a\	-ti-	.	.
.	.	.	.	.	.	8FF#/	-ti-	.	.	8a\	-o-	8dd\	-di-
!LO:TX:a:t=P:problem:# above	!	!	!	!	!	!	!	!	!	!	!	!	!
4GG#X/	.	.	.	.	.	4GG/	-o-	4.B#X\	-rum	4g\	.	4dd\	-a-
!LO:TX:a:t=P:problem:# above	!	!	!	!	!	!	!	!	!	!	!	!	!
4G#X\	.	.	.	.	.	8GG/	-nis	.	.	8g\	-nis	8dd\	-rum
!	!	!	!	!	!	!LO:TX:t=P:problem:kreska pseudotaktowa	!	!	!	!	!	!	!
.	.	.	.	.	.	8G\	et	8d\	et	8g\	et	8b#X\	et
!LO:SIC:v:t=custos F	!	!	!	!	!	!	!	!	!	!	!	!	!
!LO:TX:a:t=P:problem:# above	!	!	!	!	!	!	!	!	!	!	!	!	!
2G#X\	6 4	.	.	.	.	4.G\	con-	4.eny\	con-	4.a\	con-	4.cc#X\	con-
!LO:LB:g=original	!	!	!	!	!	!	!	!	!	!	!	!	!
.	.	.	.	.	.	8G\	-ſo-	8e\	-ſo-	8a\	-ſo-	8cc#\	-ſo-
4.F\	6	.	.	.	.	4.F\	-la-	4.f\	-la-	4.a\	-la-	4.dd\	-la-
8Gny\	.	.	.	.	.	8G\	-ti-	8e\	-ti-	8a\	-ti-	8dd\	-ti-
=18-	=18-	=18-	=18-	=18-	=18-	=18-	=18-	=18-	=18-	=18-	=18-	=18-	=18-
!LO:TX:a:t=P:problem:# above	!	!	!	!	!	!	!	!	!	!	!	!	!
1A#X	4	0r	0r	0r	0r	1A	-o-	1e	-o-	1a	-o-	4.dd\	-o-
.	.	.	.	.	.	.	.	.	.	.	.	16eeny\LL	.
.	.	.	.	.	.	.	.	.	.	.	.	16dd\JJ	.
.	.	.	.	.	.	.	.	.	.	.	.	2cc#X\	.
!LO:TX:a:t=P:problem:♭ above	!	!	!	!	!	!	!	!	!	!	!	!	!
2.D-/	.	.	.	.	.	2D/	-nis	2f\	-nis	4a\	-nis	2dd\	-nis
.	.	.	.	.	.	.	.	.	.	4a\	et	.	.
.	.	.	.	.	.	4r	.	2r	.	4f\	con-	2r	.
4Eny\	6	.	.	.	.	4Eny\	pa-	.	.	4c#X/	-ſo-	.	.
=19-	=19-	=19-	=19-	=19-	=19-	=19-	=19-	=19-	=19-	=19-	=19-	=19-	=19-
2Dny/	.	0r	0r	0r	0r	8D/	-ter	2r	.	8d\L	-la-	4r	.
.	.	.	.	.	.	8D/	mi-	.	.	8e\J	-ti-	.	.
!	!	!	!	!	!	!	!	!	!	!LO:TX:a:t=P:problem:# above	!	!	!
.	.	.	.	.	.	8D/	-ſe-	.	.	4f#X\	-o-	4dd\	et
.	.	.	.	.	.	8D/	-ri-	.	.	.	.	.	.
!	!	!	!	!	!	!LO:LB:g=original	!	!	!	!	!	!	!
4G\	.	.	.	.	.	4G\	-cor-	4r	.	4g\	-nis	4b-\	con-
4Any\	6\	.	.	.	.	4A\	-di-	4c\	pa-	4r	.	4f#X/	-ſo-
!	!	!	!	!	!	!	!	!	!	!LO:LB:g=original	!	!	!
2G\	.	.	.	.	.	4G\	-a-	8B-\	-ter	2r	.	1.g	-la-
.	.	.	.	.	.	.	.	8B-\	mi-	.	.	.	.
.	.	.	.	.	.	8G\	-rum	8B-\	-ſe-	.	.	.	.
.	.	.	.	.	.	8A\	et	8B-\	-ri-	.	.	.	.
4E-X\	6	.	.	.	.	4E-X\	con-	4c\	-cor-	4r	.	.	.
4BB#X/	6	.	.	.	.	4BB#X/	-ſo-	4d\	-di-	4d\	et	.	.
=20-	=20-	=20-	=20-	=20-	=20-	=20-	=20-	=20-	=20-	=20-	=20-	=20-	=20-
2C/	.	4r	4r	4r	4r	2C/	-la-	4c\	-a-	4.e\	con-	.	.
.	.	4C/	4g\	4cc\	4eeny\	.	.	8c\	-rum	.	.	.	.
.	.	.	.	.	.	.	.	8c\	et	8e\	-ſo-	.	.
2D/	6\	4D/	4d\	4f/	4aa\	2D/	-ti-	8B#X\	con-	4fny\	-la-	2g/	-ti-
.	.	.	.	.	.	.	.	8Bny\	-ſo-	.	.	.	.
!	!	!	!	!LO:TX:t=P:problem:kreska pseudotaktowa	!LO:TX:t=P:problem:kreska pseudotaktowa	!	!	!	!	!	!	!	!
.	.	4D/	4d\	4f/	4dd\	.	.	8B\	-la-	4f\	-ti-	.	.
!	!	!	!	!	!	!	!	!LO:SIC:v:t=custos c	!	!	!	!	!
.	.	.	.	.	.	.	.	8B\	-ti-	.	.	.	.
!	!	!	!	!	!	!	!	!LO:LB:g=original	!	!	!	!	!
1C	.	2C/	4e\	1cc	4gg\	1C	-o-	1c	-o-	4.f\	-o-	1g	-o-
.	.	.	2f\	.	4aa\	.	.	.	.	.	.	.	.
.	.	.	.	.	.	.	.	.	.	16g\LL	.	.	.
.	.	.	.	.	.	.	.	.	.	16f\JJ	.	.	.
!	!	!LO:SIC:v:t=custos FF	!	!	!	!	!	!	!	!	!	!	!
.	.	2CC/	.	.	2gg\	.	.	.	.	2e\	.	.	.
!	!	!LO:LB:g=original	!	!	!	!	!	!	!	!	!	!	!
.	.	.	4e\	.	.	.	.	.	.	.	.	.	.
=21-	=21-	=21-	=21-	=21-	=21-	=21-	=21-	=21-	=21-	=21-	=21-	=21-	=21-
1FFny	.	1FF	1f	1a	1ff	1FFny	-nis.	1c	-nis.	1f	-nis	1a	-nis
=22-	=22-	=22-	=22-	=22-	=22-	=22-	=22-	=22-	=22-	=22-	=22-	=22-	=22-
*M3/1	*	*M3/1	*M3/1	*M3/1	*M3/1	*M3/1	*	*M3/1	*	*M3/1	*	*M3/1	*
*met(O)	*	*met(O)	*met(O)	*met(O)	*met(O)	*met(O)	*	*met(O)	*	*met(O)	*	*met(O)	*
2F\	.	1%3r	1%3r	1%3r	1%3r	2F\	O	2Fny/	O	2a\	Dul-	2ccny\	Dul-
2D\	6 5	.	.	.	.	2D/	Dul-	2A/	dul-	2a\	-ce	2.b-\	-ce
2Eny\	6	.	.	.	.	2Eny\	-ce	2c\	-ce	2g\	ſo-	.	.
.	.	.	.	.	.	.	.	.	.	.	.	4cc\	ſo-
!	!	!	!	!	!	!	!	!	!	!	!	!LO:LB:g=original	!
1.F	9 8	.	.	.	.	2.F\	ſo-	2.c\	ſo-	2.g\	-la-	2.a\	-la-
.	.	.	.	.	.	4F\	-la-	4c\	-la-	4f\	-ti-	4a\	-ti-
.	.	.	.	.	.	2F\	-ti-	2c\	-ti-	2f\	-um	2a\	-um
=23-	=23-	=23-	=23-	=23-	=23-	=23-	=23-	=23-	=23-	=23-	=23-	=23-	=23-
2F\	.	1%3r	1%3r	1%3r	1%3r	2F\	-um	2F/	-um	2c/	et	2a\	et
2D\	.	.	.	.	.	2D/	et	2A\	et	2.f\	re-	2dd\	re-
!LO:SIC:v:t=custos C	!	!	!	!	!	!	!	!	!	!	!	!	!
!LO:TX:a:t=P:problem:# above	!	!	!	!	!	!	!	!	!	!	!	!	!
2G#X\	7	.	.	.	.	2G\	re-	2B#X\	fri-	.	.	2b#X\	-fri-
!LO:LB:g=original	!	!	!	!	!	!	!	!	!	!	!	!	!
.	.	.	.	.	.	.	.	.	.	4f\	-fri-	.	.
1.C	.	.	.	.	.	2.C/	-fri-	2.G/	-ge-	2.e\	-ge-	2.cc\	-ge-
.	.	.	.	.	.	4C/	-ge-	4G/	-ri-	4e\	-ri-	4cc\	-ri-
.	.	.	.	.	.	2C/	-rium	2G/	-um	2e\	-um	2cc\	-um
!	!	!	!	!	!	!LO:LB:g=original	!	!	!	!	!	!	!
=24-	=24-	=24-	=24-	=24-	=24-	=24-	=24-	=24-	=24-	=24-	=24-	=24-	=24-
!	!	!	!LO:SIC:v:t=custos g	!	!	!	!	!	!	!	!	!	!
1FF#X	6 5	1%3r	1%3r	1%3r	1%3r	1FF#X	cor-	1A	cor-	1d	cor-	1cc	cor-
!	!	!	!LO:LB:g=original	!	!	!	!	!	!	!	!	!	!
1FF#	6	.	.	.	.	1FF#	-dis	1A	-dis	1d	-dis	1cc	-dis
!	!	!	!	!	!	!	!	!	!	!LO:LB:g=original	!	!	!
1GGny	4	.	.	.	.	1GG	no-	1G	no-	1d	no-	1b#X	no-
=25-	=25-	=25-	=25-	=25-	=25-	=25-	=25-	=25-	=25-	=25-	=25-	=25-	=25-
1.C	.	2r	2r	2r	2r	1.C	-ſtri	1.G	-ſtri	1.e	-ſtri	1.cc	-ſtri
.	.	2r	2r	2r	2r	.	.	.	.	.	.	.	.
!	!	!	!	!LO:TX:t=P:problem:kreska pseudotaktowa	!LO:TX:t=P:problem:kreska pseudotaktowa	!	!	!	!	!	!	!	!
.	.	2C/	2g\	2cc\	2ee\	.	.	.	.	.	.	.	.
2C/	.	2C/	2e\	2g/	2ee\	2r	.	1.r	.	1.r	.	1.r	.
2AAny/	.	2AAny/	2c/	2cc\	2aa\	1r	.	.	.	.	.	.	.
!LO:TX:a:t=P:problem:# above	!	!	!	!LO:TX:t=P:problem:kreska pseudotaktowa	!LO:TX:t=P:problem:kreska pseudotaktowa	!	!	!	!	!	!	!	!
2D#X/	.	2D/	2d\	2a/	2ff#X\	.	.	.	.	.	.	.	.
=26-	=26-	=26-	=26-	=26-	=26-	=26-	=26-	=26-	=26-	=26-	=26-	=26-	=26-
!LO:TX:a:t=P:problem:♭ above	!	!	!	!	!	!	!	!	!	!	!	!	!
1.G-	.	1.G	2.d\	2.b-/	2.gg\	1%3r	.	1%3r	.	1%3r	.	1%3r	.
.	.	.	4d\	4b-/	4gg\	.	.	.	.	.	.	.	.
!	!	!	!	!LO:TX:t=P:problem:kreska pseudotaktowa	!LO:TX:t=P:problem:kreska pseudotaktowa	!	!	!	!	!	!	!	!
.	.	.	2d\	2b-/	2gg\	.	.	.	.	.	.	.	.
2Gny\	6	2G\	2d\	2b-/	2ee\	.	.	.	.	.	.	.	.
1A	.	1Any	2A/	2.cc\	2.ee\	.	.	.	.	.	.	.	.
.	.	.	2c/	.	.	.	.	.	.	.	.	.	.
!	!	!	!	!LO:TX:t=P:problem:kreska pseudotaktowa	!LO:TX:t=P:problem:kreska pseudotaktowa	!	!	!	!	!	!	!	!
.	.	.	.	4cc\	4ffny\	.	.	.	.	.	.	.	.
=27-	=27-	=27-	=27-	=27-	=27-	=27-	=27-	=27-	=27-	=27-	=27-	=27-	=27-
1.B-	5	1.B-	1B-	2.dd\	2.ff\	1%3r	.	1%3r	.	1%3r	.	1%3r	.
.	.	.	.	4ee\	4ff\	.	.	.	.	.	.	.	.
!	!	!	!	!LO:TX:t=P:problem:kreska pseudotaktowa	!	!	!	!	!	!	!	!	!
.	.	.	2B-/	2ff\	2dd\	.	.	.	.	.	.	.	.
!	!	!	!	!	!LO:LB:g=original	!	!	!	!	!	!	!	!
1G	6	1G	2.B-/	2gg\	1dd	.	.	.	.	.	.	.	.
!	!	!	!	!LO:TX:t=P:problem:kreska pseudotaktowa	!	!	!	!	!	!	!	!	!
.	.	.	.	1gg	.	.	.	.	.	.	.	.	.
.	.	.	4c/	.	.	.	.	.	.	.	.	.	.
!	!	!	!	!	!LO:TX:t=P:problem:kreska pseudotaktowa	!	!	!	!	!	!	!	!
1G\	.	1G\	2d\	.	2dd\	.	.	.	.	.	.	.	.
=28-	=28-	=28-	=28-	=28-	=28-	=28-	=28-	=28-	=28-	=28-	=28-	=28-	=28-
.	.	.	2d\	2ff\	2dd\	1%3r	.	2r	.	1%3r	.	1%3r	.
*	*	*	*	*col**Xcol	*	*	*	*	*	*	*	*	*
!LO:TX:a:t=P:problem:# above	!	!	!	!	!	!	!	!	!	!	!	!	!
1A#X	5 4	1A	1A	1ee	2.dd\	.	.	2.A/	non	.	.	.	.
!	!	!	!	!LO:LB:g=original	!LO:TX:t=P:problem:kreska pseudotaktowa	!	!	!	!	!	!	!	!
.	.	.	.	.	4cc#X\	.	.	4A/	ſpe-	.	.	.	.
!LO:TX:a:t=P:problem:♭ above	!	!	!	!	!	!	!	!	!	!	!	!	!
1.D-	.	1.D	1.A	1.dd	1.dd	.	.	2F/	-ra-	.	.	.	.
.	.	.	.	.	.	.	.	2D/	-bit	.	.	.	.
!	!	!	!	!	!	!	!	!LO:LB:g=original	!	!	!	!	!
.	.	.	.	.	.	.	.	2D/	cor	.	.	.	.
=29-	=29-	=29-	=29-	=29-	=29-	=29-	=29-	=29-	=29-	=29-	=29-	=29-	=29-
!LO:TX:a:t=P:problem:# above	!	!	!	!	!	!	!	!	!	!	!	!	!
1.AA#X	.	1.r	1.r	1.r	1.r	1.r	.	2C#X/	noſ-	1%3r	.	1%3r	.
.	.	.	.	.	.	.	.	2C#/	-trum	.	.	.	.
.	.	.	.	.	.	.	.	2E/	non	.	.	.	.
!LO:TX:a:t=P:problem:♭ above	!	!	!	!	!	!	!	!	!	!	!	!	!
1.D-	.	1D	1d	1ff	1aa	2r	.	2r	.	.	.	.	.
*	*	*	*	*	*	*	*	*	*ij	*	*	*	*
.	.	.	.	.	.	1D	non	1f	non	.	.	.	.
*	*	*	*	*	*	*	*	*	*Xij	*	*	*	*
!	!	!	!	!LO:TX:t=P:problem:kreska pseudotaktowa	!LO:TX:t=P:problem:kreska pseudotaktowa	!	!	!	!	!	!	!	!
.	.	2r	2r	2r	2r	.	.	.	.	.	.	.	.
=30-	=30-	=30-	=30-	=30-	=30-	=30-	=30-	=30-	=30-	=30-	=30-	=30-	=30-
!LO:TX:a:t=P:problem:# above	!	!	!	!	!LO:TX:t=P:problem:kreska pseudotaktowa	!	!	!	!	!	!	!	!
2AA#X/	.	1AA	1c	1ee	1aa	2r	.	2r	.	1a	non	1dd	non
*	*	*	*	*	*	*	*ij	*	*ij	*	*	*	*
1Any	.	.	.	.	.	1A	non	1e	non	.	.	.	.
*	*	*	*	*	*	*	*Xij	*	*Xij	*	*	*	*
!	!	!	!	!LO:TX:t=P:problem:kreska pseudotaktowa	!	!	!	!	!	!	!	!	!
.	.	2r	2r	2r	2r	.	.	.	.	2r	.	2r	.
*	*	*	*	*	*	*	*	*	*	*	*ij	*	*ij
2F\	6	2F\	1.d	1ff	2aa\	2r	.	2r	.	1a	non	1cc#X	non
!	!	!	!LO:LB:g=original	!	!	!	!	!	!	!	!	!	!
*	*	*	*	*	*	*	*ij	*	*ij	*	*Xij	*	*Xij
1D-	6	2D/	.	.	2.ff\	1D	non	1f	non	.	.	.	.
!LO:LB:g=original	!	!	!	!	!	!	!	!	!	!	!	!	!
*	*	*	*	*	*	*	*Xij	*	*Xij	*	*	*	*
!	!	!	!	!LO:TX:t=P:problem:kreska pseudotaktowa	!	!	!	!	!	!	!	!	!
.	.	2D/	.	2r	.	.	.	.	.	2r	.	2r	.
!	!	!	!	!	!LO:TX:t=P:problem:kreska pseudotaktowa	!	!	!	!	!	!	!	!
.	.	.	.	.	4ff\	.	.	.	.	.	.	.	.
=31-	=31-	=31-	=31-	=31-	=31-	=31-	=31-	=31-	=31-	=31-	=31-	=31-	=31-
!	!	!LO:SIC:v:t=custos D	!	!	!	!	!	!	!	!	!	!	!
*	*	*	*	*	*	*	*	*	*	*	*ij	*	*ij
1.C#X	6	1.C#X	1.r	2r	2ee\	1%3r	.	1%3r	.	1a	non	1dd	non
!	!	!LO:LB:g=original	!	!	!	!	!	!	!	!	!	!	!
*	*	*	*	*	*	*	*	*	*	*	*Xij	*	*Xij
.	.	.	.	2.aa\	2cc#X\	.	.	.	.	.	.	.	.
!	!	!	!	!	!LO:TX:t=P:problem:kreska pseudotaktowa	!	!	!	!	!	!	!	!
.	.	.	.	.	2ee\	.	.	.	.	0r	.	0r	.
!	!	!	!	!LO:TX:t=P:problem:kreska pseudotaktowa	!	!	!	!	!	!	!	!	!
.	.	.	.	4aa\	.	.	.	.	.	.	.	.	.
!LO:TX:a:t=P:problem:♭ above	!	!	!	!	!	!	!	!	!	!	!	!	!
1.D-	.	1D	2r	2ff\	2dd\	.	.	.	.	.	.	.	.
.	.	.	2.f\	2dd\	2dd\	.	.	.	.	.	.	.	.
!	!	!	!	!LO:TX:t=P:problem:kreska pseudotaktowa	!LO:TX:t=P:problem:kreska pseudotaktowa	!	!	!	!	!	!	!	!
.	.	2D/	.	2dd\	2dd\	.	.	.	.	.	.	.	.
.	.	.	4f\	.	.	.	.	.	.	.	.	.	.
=32-	=32-	=32-	=32-	=32-	=32-	=32-	=32-	=32-	=32-	=32-	=32-	=32-	=32-
!LO:TX:a:t=P:problem:# above	!	!	!	!	!	!	!	!	!	!	!	!	!
1.A#X	.	1.B-	2e\	2cc#X\	1.ee	1%3r	.	2r	.	1%3r	.	1%3r	.
.	.	.	2c#X/	2a/	.	.	.	2.e\	non	.	.	.	.
!	!	!	!	!LO:TX:t=P:problem:kreska pseudotaktowa	!	!	!	!	!	!	!	!	!
.	.	.	2e\	2a/	.	.	.	.	.	.	.	.	.
.	.	.	.	.	.	.	.	4e\	ſpe-	.	.	.	.
!LO:TX:a:t=P:problem:♭ above	!	!	!	!	!	!	!	!	!	!	!	!	!
1.E-	.	1.D	2d\	1.dd	1.ff	.	.	2d\	-ra-	.	.	.	.
.	.	.	2d\	.	.	.	.	2B#X\	-bit	.	.	.	.
.	.	.	2r	.	.	.	.	2d\	cor	.	.	.	.
=33-	=33-	=33-	=33-	=33-	=33-	=33-	=33-	=33-	=33-	=33-	=33-	=33-	=33-
!LO:TX:a:t=P:problem:# above	!	!	!	!	!	!	!	!	!	!	!	!	!
1.A#X	.	1%3r	1%3r	1%3r	1.r	1.r	.	2c#X\	no-	1.r	.	1.r	.
.	.	.	.	.	.	.	.	1c#	-ſtrum	.	.	.	.
1F	.	.	.	.	2r	2F\	ni-	2c#\	ni-	2f\	ni-	2a\	ni-
.	.	.	.	.	1r	2F\	-ſi	2c#\	-ſi	2f\	-ſi	2a\	-ſi
!	!	!	!	!	!	!	!	!LO:SIC:v:t=custos G	!	!	!	!	!
2AAny/	6	.	.	.	.	2AA/	in	2c#\	in	2f\	in	2a\	in
!	!	!	!	!	!	!	!	!LO:LB:g=original	!	!	!	!LO:LB:g=original	!
=34-	=34-	=34-	=34-	=34-	=34-	=34-	=34-	=34-	=34-	=34-	=34-	=34-	=34-
1.Cny	4 3	1.r	1%3r	1%3r	1r	1.C	De-	1.G	De-	(1f	De-	1.g	De-
.	.	.	.	.	2r	.	.	.	.	2e\)	.	.	.
1.F	.	1F	.	.	2r	1.FFny	-o	1.A	-o	1.f	-o	1.fny	-o
.	.	.	.	.	2.ff\	.	.	.	.	.	.	.	.
.	.	2F\	.	.	.	.	.	.	.	.	.	.	.
.	.	.	.	.	4ff\	.	.	.	.	.	.	.	.
!	!	!	!	!	!LO:LB:g=original	!	!	!	!	!	!	!	!
=35-	=35-	=35-	=35-	=35-	=35-	=35-	=35-	=35-	=35-	=35-	=35-	=35-	=35-
1.C	.	1.C	1.r	2r	2ee\	1%3r	.	1%3r	.	1%3r	.	1%3r	.
.	.	.	.	2.ccny\	2ccny\	.	.	.	.	.	.	.	.
!	!	!	!	!	!LO:TX:t=P:problem:kreska pseudotaktowa	!	!	!	!	!	!	!	!
.	.	.	.	.	2ee\	.	.	.	.	.	.	.	.
!	!	!	!	!LO:TX:t=P:problem:kreska pseudotaktowa	!	!	!	!	!	!	!	!	!
.	.	.	.	4cc\	.	.	.	.	.	.	.	.	.
1.F	.	1FF	2r	2a/	2ff\	.	.	.	.	.	.	.	.
.	.	.	2.cny/	2f/	2ff\	.	.	.	.	.	.	.	.
!	!	!	!	!LO:TX:t=P:problem:kreska pseudotaktowa	!LO:TX:t=P:problem:kreska pseudotaktowa	!	!	!	!	!	!	!	!
.	.	2FF/	.	2a/	2ff\	.	.	.	.	.	.	.	.
.	.	.	4c/	.	.	.	.	.	.	.	.	.	.
=36-	=36-	=36-	=36-	=36-	=36-	=36-	=36-	=36-	=36-	=36-	=36-	=36-	=36-
1C	.	1C	2c/	2g/	2ee\	1%3r	.	1%3r	.	1%3r	.	1%3r	.
.	.	.	2G/	2g/	2r	.	.	.	.	.	.	.	.
!	!	!	!	!LO:TX:t=P:problem:kreska pseudotaktowa	!LO:TX:t=P:problem:kreska pseudotaktowa	!	!	!	!	!	!	!	!
2GG/	.	2G\	2d\	2b-/	2gg\	.	.	.	.	.	.	.	.
!LO:TX:a:t=P:problem:# above	!	!	!	!	!	!	!	!	!	!	!	!	!
1.D#X	.	1D	2d\	2a/	1ff#X	.	.	.	.	.	.	.	.
.	.	.	2d\	2r	.	.	.	.	.	.	.	.	.
!	!	!	!	!	!LO:TX:t=P:problem:kreska pseudotaktowa	!	!	!	!	!	!	!	!
.	.	2D/	2d\	2dd\	2r	.	.	.	.	.	.	.	.
!	!	!	!	!LO:LB:g=original	!	!	!	!	!	!	!	!	!
=37-	=37-	=37-	=37-	=37-	=37-	=37-	=37-	=37-	=37-	=37-	=37-	=37-	=37-
2E-X\	6	2E-X\	2G/	2cc-\	2gg\	1%3r	.	1.r	.	1%3r	.	1%3r	.
1C	8 7	1C	2G/	2ccny\	2gg\	.	.	.	.	.	.	.	.
!	!	!	!	!LO:TX:t=P:problem:kreska pseudotaktowa	!LO:TX:t=P:problem:kreska pseudotaktowa	!	!	!	!	!	!	!	!
.	.	.	2g\	2b-/	2gg\	.	.	.	.	.	.	.	.
1.Dny	6 4	1D	2d\	2b-/	1gg	.	.	2r	.	.	.	.	.
!	!	!	!	!LO:TX:t=P:problem:kreska pseudotaktowa	!	!	!	!	!	!	!	!	!
.	5	.	2.d\	1a	.	.	.	2.d\	non	.	.	.	.
!	!	!	!	!	!LO:TX:t=P:problem:kreska pseudotaktowa	!	!	!	!	!	!	!	!
.	.	2DD/	.	.	2ff#X\	.	.	.	.	.	.	.	.
.	.	.	4d\	.	.	.	.	4d\	ſpe-	.	.	.	.
=38-	=38-	=38-	=38-	=38-	=38-	=38-	=38-	=38-	=38-	=38-	=38-	=38-	=38-
1.G	.	1.GG	1d	1.b-	1.gg	2r	.	2B-\	-ra-	1%3r	.	1.r	.
.	.	.	.	.	.	2.G\	non	2G/	-bit	.	.	.	.
.	.	.	2r	.	.	.	.	2B-\	.	.	.	.	.
.	.	.	.	.	.	4G\	ſpe-	.	.	.	.	.	.
2F#X\	6	1.r	1.r	1.r	1.r	2F#X\	-ra-	2A/	cor	.	.	2r	.
2D\	.	.	.	.	.	2D/	-bit	2A/	no-	.	.	2.dd\	non
!LO:SIC:v:t=custos G	!	!	!	!	!	!	!	!	!	!	!	!	!
2F#X\	6	.	.	.	.	2F#X\	cor	2A/	-ſtrum	.	.	.	.
!LO:LB:g=original	!	!	!	!	!	!LO:LB:g=original	!	!	!	!	!	!	!
.	.	.	.	.	.	.	.	.	.	.	.	4dd\	ſpe-
=39-	=39-	=39-	=39-	=39-	=39-	=39-	=39-	=39-	=39-	=39-	=39-	=39-	=39-
!LO:TX:a:t=P:problem:♭ above	!	!	!	!	!	!	!	!	!	!	!	!	!
1G-	.	1%3r	1%3r	1%3r	1%3r	2G\	no-	1B-	.	2r	.	2b-\	-ra-
.	.	.	.	.	.	2G\	-ſtrum	.	.	2.g\	non	2g/	-bit
2GG/	.	.	.	.	.	2GG/	cor	2d\	non	.	.	2b-\	cor
.	.	.	.	.	.	.	.	.	.	4g\	ſpe-	.	.
*	*	*	*	*	*	*	*	*	*ij	*	*	*	*
!LO:TX:a:t=P:problem:# above	!	!	!	!	!	!	!	!	!	!	!	!	!
1.D#X	.	.	.	.	.	1D	no-	1d	non	2f#X\	-ra-	2a\	no-
*	*	*	*	*	*	*	*	*	*Xij	*	*	*	*
.	.	.	.	.	.	.	.	.	.	2d\	-bit	2a\	-ſtrum
.	.	.	.	.	.	2D/	-ſtrum	2r	.	2f#X\	cor	2a\	non
=40-	=40-	=40-	=40-	=40-	=40-	=40-	=40-	=40-	=40-	=40-	=40-	=40-	=40-
*	*	*	*	*	*	*	*	*	*ij	*	*	*	*ij
1GG	.	2r	1.r	1.r	1.r	2GG/	non	2d\	non	2g\	no-	2b-\	non
.	.	1r	.	.	.	2r	.	2r	.	2g\	-ſtrum	2r	.
!	!	!	!	!	!	!	!	!	!	!LO:LB:g=original	!	!	!
*	*	*	*	*	*	*	*ij	*	*	*	*	*	*
2AA/	6	.	.	.	.	2AA/	non	2cny\	non	2fny\	non	2ccny\	non
*	*	*	*	*	*	*	*	*	*	*	*ij	*	*
1.BB-	.	2r	2r	2r	2r	1BB-	non	1B-	non	1f	non	1.dd	non
*	*	*	*	*	*	*	*Xij	*	*Xij	*	*Xij	*	*Xij
!	!	!	!LO:LB:g=original	!	!	!	!	!	!	!	!	!	!
.	.	2r	2r	2r	2r	.	.	.	.	.	.	.	.
!	!	!	!	!LO:TX:t=P:problem:kreska pseudotaktowa	!LO:TX:t=P:problem:kreska pseudotaktowa	!	!	!	!	!	!	!	!
.	.	2BB-/	2B-/	2dd\	2ffny\	2r	.	2r	.	2r	.	.	.
=41-	=41-	=41-	=41-	=41-	=41-	=41-	=41-	=41-	=41-	=41-	=41-	=41-	=41-
1.E-X	.	2r	2r	2r	2r	2E-X\	ni-	2B-\	ni-	2g\	ni-	2ee-X\	ni-
.	.	2E-X\	2B-/	2ee-X\	2gg\	2E-\	-ſi	2B-\	-ſi	2g\	-ſi	2ee-\	-ſi
!	!	!LO:SIC:v:t=custos F	!	!LO:TX:t=P:problem:kreska pseudotaktowa	!LO:TX:t=P:problem:kreska pseudotaktowa	!	!	!LO:SIC:v:t=custos B-	!	!	!	!	!
.	.	2E-\	2B-/	2ee-\	2gg\	2E-\	in	2B-\	in	2f\	in	2ee-\	in
!	!	!LO:LB:g=original	!	!	!	!	!	!LO:LB:g=original	!	!	!	!	!
1.Fny	4 3	2.F\	2f\	2cc\	2ff\	1.Fny	De-	(1B-	De-	1.f	De-	1.cc	De-
.	.	.	2c/	1cc	1ff	.	.	.	.	.	.	.	.
!	!	!	!	!	!LO:LB:g=original	!	!	!	!	!	!	!	!
.	.	4E-X\	.	.	.	.	.	.	.	.	.	.	.
.	.	4F\	4.f\	.	.	.	.	2A/)	.	.	.	.	.
.	.	4FF/	.	.	.	.	.	.	.	.	.	.	.
.	.	.	8e-X\	.	.	.	.	.	.	.	.	.	.
=42-	=42-	=42-	=42-	=42-	=42-	=42-	=42-	=42-	=42-	=42-	=42-	=42-	=42-
*M2/1	*	*M2/1	*M2/1	*M2/1	*M2/1	*M2/1	*	*M2/1	*	*M2/1	*	*M2/1	*
*met(C|)	*	*met(C|)	*met(C|)	*met(C|)	*met(C|)	*met(C|)	*	*met(C|)	*	*met(C|)	*	*met(C|)	*
2BB-/	.	2BB-/	2d\	2dd\	2ff\	4BB-/	-o	2B-\	-o	4d\	-o	2dd\	-o
!	!	!	!	!	!	!LO:TX:t=P:problem:nieczytelny zapis	!	!	!	!	!	!	!
.	.	.	.	.	.	8BB-/	.	.	.	8f\L	qvi-	.	.
.	.	.	.	.	.	8BB-/	i-	.	.	8f\J	-a	.	.
2AA/	6\	2r	2r	2r	2r	4AA/	-pſe	2r	.	4f#X\	i-	2r	.
!	!	!	!	!	!	!	!	!	!	!	!	!LO:LB:g=original	!
.	.	.	.	.	.	8AA/	eſt	.	.	8f#\L	-pſe	.	.
.	.	.	.	.	.	8AA/	Do-	.	.	8f#\J	eſt	.	.
!LO:TX:a:t=P:problem:# above	!	!	!	!	!	!	!	!	!	!	!	!	!
1GG#X	.	1r	1r	1r	1r	8.GG/	.	1r	.	8.g\	do-	4r	.
.	.	.	.	.	.	16GG/	-mi-	.	.	16g\	-mi-	.	.
.	.	.	.	.	.	4GG/	-nus	.	.	4g\	-n(us)	8b-\	qvi-
!	!	!	!	!	!	!LO:LB:g=original	!	!	!	!	!	!	!
.	.	.	.	.	.	.	.	.	.	.	.	8b-\	-a
.	.	.	.	.	.	8r	.	.	.	8r	.	4b#X\	ip-
.	.	.	.	.	.	8G\	pro-	.	.	8d\	pro-	.	.
.	.	.	.	.	.	8G\	-tec-	.	.	8g\	-tec-	8bny\	-ſe
.	.	.	.	.	.	8GG/	-tor	.	.	8f#\	-tor	8b\	eſt
=43-	=43-	=43-	=43-	=43-	=43-	=43-	=43-	=43-	=43-	=43-	=43-	=43-	=43-
1C	.	0r	0r	0r	0r	4C/	no-	0r	.	4e\	no-	8.cc\	Do-
.	.	.	.	.	.	.	.	.	.	.	.	16cc\	-mi-
.	.	.	.	.	.	4C/	-ſter	.	.	4e\	-ſter	8cc\	-n(us)
.	.	.	.	.	.	.	.	.	.	.	.	8g/	pro-
.	.	.	.	.	.	8r	.	.	.	8r	.	4.cc\	-te-
.	.	.	.	.	.	8c\	ad-	.	.	8e\	ad-	.	.
.	.	.	.	.	.	8c\	-ju-	.	.	8a\	-ju-	.	.
.	.	.	.	.	.	8C/	-tor	.	.	8g\	-tor	8b-\	-ctor
!	!	!	!	!	!	!	!	!	!	!LO:LB:g=original	!	!	!
2F\	.	.	.	.	.	4F\	noſ-	.	.	4fny\	noſ-	4a\	no-
.	.	.	.	.	.	8F\	-ter	.	.	8f\	-ter	8a\	-ſter
.	.	.	.	.	.	8F\	et	.	.	8f\	et	8cc\	et
2BB-/	.	.	.	.	.	4BB-/	ſa-	.	.	4f\	ſa-	4dd\	ſa-
.	.	.	.	.	.	4BB-/	-lus	.	.	4f\	-lus	4dd\	-lus
=44-	=44-	=44-	=44-	=44-	=44-	=44-	=44-	=44-	=44-	=44-	=44-	=44-	=44-
2C/	4 3	0r	0r	0r	0r	2C/	no-	0r	.	(4f\	no-	2g/	no-
.	.	.	.	.	.	.	.	.	.	4e\)	.	.	.
2F\	.	.	.	.	.	2FF/	-ſtra	.	.	2f\	-ſtra	8a\	-ſtra
.	.	.	.	.	.	.	.	.	.	.	.	8cc\	ad-
.	.	.	.	.	.	.	.	.	.	.	.	8ff\	-ju-
.	.	.	.	.	.	.	.	.	.	.	.	8eeny\	-tor
2BB-/	.	.	.	.	.	8r	.	.	.	8r	.	4dd\	no-
.	.	.	.	.	.	8BB-/	ad-	.	.	8f\	ad-	.	.
.	.	.	.	.	.	8BB-/	-ju-	.	.	8b-\	-ju-	8dd\	-ſter
.	.	.	.	.	.	8BB-/	-tor	.	.	8a\	-tor	8dd\	et
!	!	!	!	!	!	!	!	!	!	!	!	!LO:LB:g=original	!
4.C/	.	.	.	.	.	4C/	me-	.	.	4g\	no-	4ee\	ſa-
.	.	.	.	.	.	8C/	-us	.	.	8g\	-ſter	8ee\	-lus
8AA/	6	.	.	.	.	8AA/	et	.	.	8a\	et	8ff\	et
=45-	=45-	=45-	=45-	=45-	=45-	=45-	=45-	=45-	=45-	=45-	=45-	=45-	=45-
4BB-/	.	1r	0r	0r	1r	4BB-/	ſa-	0r	.	4.f\	ſa-	4dd\	ſa-
!	!	!	!	!	!	!LO:SIC:v:t=custos AA	!	!	!	!	!	!	!
4GGny/	6	.	.	.	.	4GG/	-lus	.	.	.	.	4dd\	-lus
!	!	!	!	!	!	!LO:PB:g=original	!	!	!	!	!	!	!
.	.	.	.	.	.	.	.	.	.	8e\	-lus	.	.
2AA/	4	.	.	.	.	2AA/	no-	.	.	2e\	no-	(4dd\	noſ-
.	.	.	.	.	.	.	.	.	.	.	.	4cc#X\)	.
!LO:SIC:v:t=custos E	!	!	!	!	!	!	!	!	!	!	!	!	!
2Dny/	.	4r	.	.	4r	2D/	-ſtra	.	.	2f#X\	-ſtra	2dd\	-tra
!LO:LB:g=original	!	!	!	!	!	!	!	!	!	!	!	!	!
.	.	8D/L	.	.	8ff#X\L	.	.	.	.	.	.	.	.
.	.	8D/J	.	.	8ff#\J	.	.	.	.	.	.	.	.
2Eny\	.	4Eny\	.	.	4gg\	2r	.	.	.	2r	.	2r	.
.	.	8E\L	.	.	8gg\L	.	.	.	.	.	.	.	.
!	!	!	!	!	!LO:TX:t=P:problem:kreska pseudotaktowa	!	!	!	!	!	!	!	!
.	.	8E\J	.	.	8gg\J	.	.	.	.	.	.	.	.
=46-	=46-	=46-	=46-	=46-	=46-	=46-	=46-	=46-	=46-	=46-	=46-	=46-	=46-
2F#X\	6	2F#X\	2r	4r	2aa\	0r	.	0r	.	0r	.	0r	.
.	.	.	.	8a/L	.	.	.	.	.	.	.	.	.
.	.	.	.	8a/J	.	.	.	.	.	.	.	.	.
!LO:TX:a:t=P:problem:# above	!	!	!	!	!LO:TX:t=P:problem:kreska pseudotaktowa	!	!	!	!	!	!	!	!
2G#X\	.	2G\	4r	4b#X/	2dd\	.	.	.	.	.	.	.	.
.	.	.	8G/L	8bny/L	.	.	.	.	.	.	.	.	.
!	!	!	!LO:TX:t=P:problem:kreska pseudotaktowa	!LO:TX:t=P:problem:kreska pseudotaktowa	!	!	!	!	!	!	!	!	!
.	.	.	8G/J	8b/J	.	.	.	.	.	.	.	.	.
2E\	6\	4E\	4G/	2cc#X\	4r	.	.	.	.	.	.	.	.
.	.	4E\	8G/L	.	8ee\L	.	.	.	.	.	.	.	.
.	.	.	8G/J	.	8ee\J	.	.	.	.	.	.	.	.
!LO:TX:a:t=P:problem:# above	!	!	!	!	!	!	!	!	!	!	!	!	!
2D#X/	.	2.D/	4A/	4dd\	4ff#X\	.	.	.	.	.	.	.	.
!	!	!	!LO:TX:t=P:problem:kreska pseudotaktowa	!	!	!	!	!	!	!	!	!	!
.	.	.	(4A/	8dd\L	8ff#\L	.	.	.	.	.	.	.	.
.	.	.	.	8dd\J	8ff#\J	.	.	.	.	.	.	.	.
!	!	!	!	!LO:LB:g=original	!	!	!	!	!	!	!	!	!
=47-	=47-	=47-	=47-	=47-	=47-	=47-	=47-	=47-	=47-	=47-	=47-	=47-	=47-
4Dny/	.	.	4B-/)	4eeny\	4gg#X\	0r	.	1r	.	0r	.	0r	.
4C/	6	4C/	4A/	8ee\L	4aa\	.	.	.	.	.	.	.	.
.	.	.	.	8ee\J	.	.	.	.	.	.	.	.	.
!	!	!	!LO:N:acc=#:global	!LO:TX:t=P:problem:kreska pseudotaktowa	!	!	!	!	!	!	!	!	!
2BB#X/	6	2BBn/	2Bn/	2dd\	4.aa\	.	.	.	.	.	.	.	.
!	!	!	!	!	!LO:TX:t=P:problem:kreska pseudotaktowa	!	!	!	!	!	!	!	!
.	.	.	.	.	8gg#X\	.	.	.	.	.	.	.	.
8AA/L	.	8AA/L	8c#X/L	4cc#X\	4aa\	.	.	4r	.	.	.	.	.
8A#X\J	.	8A\J	8A/J	.	.	.	.	.	.	.	.	.	.
4Fny\	.	16Fny\LL	16any\LL	8r	8r	.	.	8A\	qvi	.	.	.	.
.	.	16G\	16b-\	.	.	.	.	.	.	.	.	.	.
.	.	16F\	16a\	8dd\	8aa\	.	.	8A\	ſpe-	.	.	.	.
!	!	!LO:SIC:v:t=custos D	!	!	!	!	!	!	!	!	!	!	!
.	.	16E\JJ	16g\JJ	.	.	.	.	.	.	.	.	.	.
!	!	!LO:LB:g=original	!	!	!	!	!	!	!	!	!	!	!
4D/	6	8D/L	8f\L	16dd\LL	16ffny\LL	.	.	4B#X\	-ra-	.	.	.	.
.	.	.	.	16ee\	16gg#\	.	.	.	.	.	.	.	.
!	!	!	!LO:SIC:v:t=custos g	!	!	!	!	!	!	!	!	!	!
.	.	8D/J	8f\J	16dd\	16ff\	.	.	.	.	.	.	.	.
!	!	!	!LO:LB:g=original	!	!	!	!	!	!	!	!	!	!
.	.	.	.	16cc#\JJ	16ee\JJ	.	.	.	.	.	.	.	.
!LO:TX:a:t=P:problem:# above	!	!	!	!	!	!	!	!	!	!	!	!	!
8G#X\L	.	16G\LL	8g\L	8b#X/L	8dd\L	.	.	8B\	-bit	.	.	.	.
.	.	16A\	.	.	.	.	.	.	.	.	.	.	.
!	!	!	!LO:TX:t=P:problem:kreska pseudotaktowa	!	!	!	!	!	!	!	!	!	!
8F\J	.	16G\	8g\J	8bny/J	8dd\J	.	.	8B\	in	.	.	.	.
.	.	16F\JJ	.	.	.	.	.	.	.	.	.	.	.
=48-	=48-	=48-	=48-	=48-	=48-	=48-	=48-	=48-	=48-	=48-	=48-	=48-	=48-
!	!	!	!LO:TX:b:t=P:problem:# below	!	!	!	!	!	!	!	!	!	!
4E\	6\	16E\LL	8c#X/L	8ee\L	8ggny\L	0r	.	2c#X\	e-	1r	.	2r	.
.	.	16F\	.	.	.	.	.	.	.	.	.	.	.
.	.	16G\	8A/J	16ee\L	16gg\L	.	.	.	.	.	.	.	.
.	.	16E\JJ	.	16dd\JJ	16ff\JJ	.	.	.	.	.	.	.	.
4A#X\	.	8A\L	4A/	8.dd\L	8.ee\L	.	.	.	.	.	.	.	.
.	.	8AA/J	.	.	.	.	.	.	.	.	.	.	.
!	!	!	!	!LO:TX:a:t=P:problem:# above	!	!	!	!	!	!	!	!	!
.	.	.	.	16cc#X\Jk	16dd\Jk	.	.	.	.	.	.	.	.
!	!	!	!	!	!LO:TX:t=P:problem:kreska pseudotaktowa	!	!	!	!	!	!	!	!
2D/	.	2D/	4A/	2dd\	2dd\	.	.	4d\	-o	.	.	8r	.
!	!	!	!	!	!LO:LB:g=original	!	!	!	!	!	!	!	!
.	.	.	.	.	.	.	.	.	.	.	.	8dd\	non
*	*	*	*	*	*	*	*	*	*ij	*	*	*	*
.	.	.	4r	.	.	.	.	8D/	qvi	.	.	8b-\	con-
.	.	.	.	.	.	.	.	8D/	ſpe-	.	.	8b-\	-fun-
2E\	6	1r	1r	1r	1r	.	.	4E/	-ra-	8r	.	8g/	-de-
.	.	.	.	.	.	.	.	.	.	8g\	non	8g/	-tur
.	.	.	.	.	.	.	.	8E/	-bit	8e\	con-	8ccny\	in
!	!	!	!	!	!	!	!	!	!	!LO:SIC:v:t=custos d	!	!	!
.	.	.	.	.	.	.	.	8E/	in	8e\	-fun-	8b-\	ae-
!	!	!	!	!	!	!	!	!	!	!LO:PB:g=original	!	!	!
2F#X\	6	.	.	.	.	.	.	2F#X/	e-	2d\	-de-	8a\L	-ter-
.	.	.	.	.	.	.	.	.	.	.	.	16b-\L	.
.	.	.	.	.	.	.	.	.	.	.	.	16cc\JJ	.
.	.	.	.	.	.	.	.	.	.	.	.	8dd\L	.
.	.	.	.	.	.	.	.	.	.	.	.	16cc\L	.
!	!	!	!	!	!	!	!	!	!	!	!	!LO:TX:t=P:problem:kreska pseudotaktowa	!
.	.	.	.	.	.	.	.	.	.	.	.	16dd\JJ	.
=49-	=49-	=49-	=49-	=49-	=49-	=49-	=49-	=49-	=49-	=49-	=49-	=49-	=49-
!LO:TX:a:t=P:problem:# above	!	!	!	!	!	!	!	!	!	!	!	!	!
4G#X\	.	0r	0r	0r	0r	4r	.	2G/	-o	8d\	-tur	4b#X\	-num
*	*	*	*	*	*	*	*	*	*Xij	*	*	*	*
.	.	.	.	.	.	.	.	.	.	8g\	non	.	.
4GG/	.	.	.	.	.	8GG/	qui	.	.	8e\	con-	8bny\	q(ui)
!	!	!	!	!	!	!	!	!	!	!	!	!LO:SIC:v:t=custos cc	!
.	.	.	.	.	.	8GG/	ſpe-	.	.	8e\	-fun-	8b\	ſpe-
!	!	!	!	!	!	!	!	!	!	!	!	!LO:PB:g=original	!
2AA/	6	.	.	.	.	4AA/	-ra-	2r	.	8c\	-de-	4cc\	-ra-
.	.	.	.	.	.	.	.	.	.	8c\	-tur	.	.
.	.	.	.	.	.	8AA/	-bit	.	.	8fny\	in	8cc\	-bit
.	.	.	.	.	.	8AA/	in	.	.	8e\	ae-	8cc\	in
2BB#X/	5	.	.	.	.	2BB#X/	e-	2r	.	8d\L	-ter-	2dd\	e-
.	.	.	.	.	.	.	.	.	.	16e\L	.	.	.
.	.	.	.	.	.	.	.	.	.	16f\JJ	.	.	.
.	.	.	.	.	.	.	.	.	.	8g\L	.	.	.
.	.	.	.	.	.	.	.	.	.	16f\L	.	.	.
.	.	.	.	.	.	.	.	.	.	16g\JJ	.	.	.
2C/	5	.	.	.	.	4C/	-o	4r	.	2e\	-num	8ee\	-o
.	.	.	.	.	.	.	.	.	.	.	.	8ee\	non
*	*	*	*	*	*	*	*ij	*	*	*	*	*	*
.	.	.	.	.	.	8C/	qui	8r	.	.	.	8cc\	con-
.	.	.	.	.	.	8C/	ſpe-	8A/	non	.	.	8cc\	-fun-
=50-	=50-	=50-	=50-	=50-	=50-	=50-	=50-	=50-	=50-	=50-	=50-	=50-	=50-
!LO:TX:a:t=P:problem:# above	!	!	!	!	!	!	!	!	!	!	!	!	!
2D#X/	6	0r	0r	0r	0r	4D/	-ra-	8F#X/	con-	1r	.	8a\	-de-
!	!	!	!	!	!	!	!	!LO:SIC:v:t=custos Bn	!	!	!	!	!
.	.	.	.	.	.	.	.	8F#/	-fun-	.	.	8a\	-tur
!	!	!	!	!	!	!	!	!LO:PB:g=original	!	!	!	!	!
.	.	.	.	.	.	8D/	-bit	8B#X\	-de-	.	.	8dd\	in
.	.	.	.	.	.	8D/	in	8A\	-tur	.	.	8cc\	ae-
!LO:SIC:v:t=custos F	!	!	!	!	!	!	!	!	!	!	!	!	!
!LO:TX:a:t=P:problem:# above	!	!	!	!	!	!	!	!	!	!	!	!	!
2E#X\	6	.	.	.	.	4Eny\	e-	8G/L	in	.	.	8b#X\L	-ter-
!LO:PB:g=original	!	!	!	!	!	!	!	!	!	!	!	!	!
.	.	.	.	.	.	.	.	16A/L	ae-	.	.	16cc\L	.
.	.	.	.	.	.	.	.	16B/JJ	.	.	.	16dd\JJ	.
.	.	.	.	.	.	8E\	-o	8cny\L	-ter-	.	.	8ee\L	.
*	*	*	*	*	*	*	*Xij	*	*	*	*	*	*
.	.	.	.	.	.	8E\	in	16B\L	.	.	.	16dd\L	.
!	!	!	!	!	!	!	!	!LO:TX:t=P:problem:kreska pseudotaktowa	!	!	!	!	!
.	.	.	.	.	.	.	.	16c\JJ	.	.	.	16ee\JJ	.
4.Fny\	6 5	.	.	.	.	4.F\	e-	8A\	.	2r	.	8cc\L	.
.	.	.	.	.	.	.	.	8A\	-num	.	.	8cc\J	-num
.	.	.	.	.	.	.	.	8d\L	in	.	.	8ff\L	in
8Gny\	.	.	.	.	.	8G\	.	8d\J	ae-	.	.	8ee\J	ae-
!LO:TX:a:t=P:problem:# above	!	!	!	!	!	!	!	!	!	!	!	!LO:SIC:v:t=custos dd	!
2A#X\	.	.	.	.	.	2A\	-o	(4d\	-ter-	4r	.	2ee\	-ter-
!	!	!	!	!	!	!	!	!	!	!	!	!LO:LB:g=original	!
!	!	!	!	!	!	!	!	!LO:TX:t=P:problem:kreska pseudotaktowa	!	!	!	!	!
.	.	.	.	.	.	.	.	4c#X\)	.	8r	.	.	.
.	.	.	.	.	.	.	.	.	.	8a\	non	.	.
=51-	=51-	=51-	=51-	=51-	=51-	=51-	=51-	=51-	=51-	=51-	=51-	=51-	=51-
4Dny/	.	0r	0r	0r	0r	8D/	.	4d\	-num	8f\	con-	4dd\	-num
.	.	.	.	.	.	8D/	non	.	.	8f\	-fun-	.	.
4BBny/	.	.	.	.	.	8BBny/	con-	8r	.	8d\	-de-	8f/L	qvi
!	!	!	!	!	!	!LO:SIC:v:t=custos GG	!	!	!	!LO:SIC:v:t=custos g	!	!	!
.	.	.	.	.	.	8BB/	-fun-	8d\	non	8d\	-tur	8f/J	ſpe-
!	!	!	!	!	!	!LO:LB:g=original	!	!	!	!LO:LB:g=original	!	!	!
4GG/	.	.	.	.	.	8GG/	-de-	8B-\	con-	8r	.	4g/	-ra-
*	*	*	*	*	*	*	*	*	*	*	*ij	*	*
.	.	.	.	.	.	8GG/	-tur	8B-\	-fun-	8g\	non	.	.
4C/	.	.	.	.	.	8C/	in	8G/	-de-	8e\	con-	8g/	-bit
!	!	!	!	!	!	!	!	!LO:TX:t=P:problem:kreska pseudotaktowa	!	!	!	!	!
.	.	.	.	.	.	8BB/	ae-	8G/	-tur	8e\	-fun-	8g/	in
4AA/	6\	.	.	.	.	8AA/L	-ter-	4cny\	in	8f#X\	-de-	2a\	e-
.	.	.	.	.	.	16BB/L	.	.	.	8f#\	-tur	.	.
*	*	*	*	*	*	*	*	*	*	*	*Xij	*	*
.	.	.	.	.	.	16C/JJ	.	.	.	.	.	.	.
!LO:TX:a:t=P:problem:# above	!	!	!	!	!	!	!	!LO:SIC:v:t=custos d	!	!	!	!	!
4D#X/	.	.	.	.	.	8D/L	.	4d\	ae-	8f#\	in	.	.
!	!	!	!	!	!	!	!	!LO:LB:g=original	!	!	!	!	!
.	.	.	.	.	.	16C/L	.	.	.	8f#\	ae-	.	.
.	.	.	.	.	.	16D/JJ	.	.	.	.	.	.	.
4GG/	.	.	.	.	.	8GG/	-num	1d\	-ter-	8g\	-ter-	4b-\	-o
.	.	.	.	.	.	8GG/	in	.	.	8g\	-num	.	.
4AA/	6	.	.	.	.	8AA/	ae-	.	.	8f#\	in	4a\	in
.	.	.	.	.	.	8AA/	-ter-	.	.	8e\	ae-	.	.
=52-	=52-	=52-	=52-	=52-	=52-	=52-	=52-	=52-	=52-	=52-	=52-	=52-	=52-
2BB/	.	2r	1r	1r	2r	2BB/	-num	.	.	16d\LL	-ter-	4.a\	e-
.	.	.	.	.	.	.	.	.	.	16c\	.	.	.
.	.	.	.	.	.	.	.	.	.	16d\	.	.	.
.	.	.	.	.	.	.	.	.	.	16e\JJ	.	.	.
.	.	.	.	.	.	.	.	.	.	4d\	.	.	.
.	.	.	.	.	.	.	.	.	.	.	.	8g/	.
!LO:TX:a:t=P:problem:# above	!	!	!	!	!	!	!	!	!	!	!	!	!
4AA#X/	6	4r	.	.	8r	2AA/	non	4e\	-num	2c#X/	-num	2a\	-o
!	!	!	!	!	!LO:TX:t=P:problem:kreska pseudotaktowa	!	!	!	!	!	!	!	!
.	.	.	.	.	8aa\L	.	.	.	.	.	.	.	.
4Any\	6	8r	.	.	8ff\	.	.	4r	.	.	.	.	.
.	.	8A\	.	.	8ff\J	.	.	.	.	.	.	.	.
2G\	6 5	8G\L	2r	8r	8dd\L	1r	.	1r	.	1r	.	1r	.
.	.	8G\J	.	8gg\L	8dd\	.	.	.	.	.	.	.	.
.	.	4GG/	.	8ee\	8gg\	.	.	.	.	.	.	.	.
.	.	.	.	8ee\J	8ff\J	.	.	.	.	.	.	.	.
2A\	6	8r	4r	8ccny\L	8ee\L	.	.	.	.	.	.	.	.
.	.	8A\L	.	16dd\L	16ff\L	.	.	.	.	.	.	.	.
.	.	.	.	16ee\JJ	16gg\JJ	.	.	.	.	.	.	.	.
.	.	8A\	8r	8ff\L	8aa\L	.	.	.	.	.	.	.	.
.	.	8AA/J	8cc\	16ee\L	16gg\L	.	.	.	.	.	.	.	.
!	!	!	!	!LO:TX:t=P:problem:kreska pseudotaktowa	!LO:TX:t=P:problem:kreska pseudotaktowa	!	!	!	!	!	!	!	!
.	.	.	.	16ff\JJ	16aa\JJ	.	.	.	.	.	.	.	.
=53-	=53-	=53-	=53-	=53-	=53-	=53-	=53-	=53-	=53-	=53-	=53-	=53-	=53-
2Dny/	.	4D/	8a\L	8dd\L	4ff#X\	0r	.	0r	.	0r	.	0r	.
.	.	.	8a\J	8dd\J	.	.	.	.	.	.	.	.	.
.	.	8D/L	8f#X\L	8b/L	8r	.	.	.	.	.	.	.	.
.	.	8D/J	16eny\L	8b/J	8dd\	.	.	.	.	.	.	.	.
!	!	!	!	!LO:LB:g=original	!	!	!	!	!	!	!	!	!
.	.	.	16f#\JJ	.	.	.	.	.	.	.	.	.	.
!	!	!	!	!	!	!	!	!	!	!	!	!	!
2Eny\	6	4.E\	8g\L	8g/L	8gg\L	.	.	.	.	.	.	.	.
.	.	.	8g\J	8g/	8gg\	.	.	.	.	.	.	.	.
.	.	.	4r	8cc\	8ee\	.	.	.	.	.	.	.	.
!	!	!LO:SIC:v:t=custos F#	!	!LO:TX:t=P:problem:kreska pseudotaktowa	!LO:TX:t=P:problem:kreska pseudotaktowa	!	!	!	!	!	!	!	!
.	.	8E\	.	8b\J	8ee\J	.	.	.	.	.	.	.	.
!	!	!LO:LB:g=original	!	!	!	!	!	!	!	!	!	!	!
2F#X\	6	4.F#X\	8r	8a/L	8aa\L	.	.	.	.	.	.	.	.
.	.	.	8a\L	16b/L	16gg\L	.	.	.	.	.	.	.	.
.	.	.	.	16cc/JJ	16aa\JJ	.	.	.	.	.	.	.	.
.	.	.	8f#X\	8dd\L	8ff#X\L	.	.	.	.	.	.	.	.
.	.	8F#\	8f#\J	16cc\L	16ee\L	.	.	.	.	.	.	.	.
.	.	.	.	16dd\JJ	16ff#\JJ	.	.	.	.	.	.	.	.
8G\L	.	8G\L	8d\L	8b/L	8gg\L	.	.	.	.	.	.	.	.
8GG/	.	8GG/J	16cny\L	8b/	8gg\	.	.	.	.	.	.	.	.
.	.	.	16d\JJ	.	.	.	.	.	.	.	.	.	.
8AAny/	6	16AA/LL	8c\L	8a/	8ff#\	.	.	.	.	.	.	.	.
.	.	16BB/	.	.	.	.	.	.	.	.	.	.	.
!	!	!	!LO:SIC:v:t=custos f	!LO:TX:t=P:problem:kreska pseudotaktowa	!LO:TX:t=P:problem:kreska pseudotaktowa	!	!	!	!	!	!	!	!
8BB/J	6	16AA/	8d\J	8g/J	8ff#\J	.	.	.	.	.	.	.	.
!	!	!	!LO:LB:g=original	!	!	!	!	!	!	!	!	!	!
.	.	16BB/JJ	.	.	.	.	.	.	.	.	.	.	.
=54-	=54-	=54-	=54-	=54-	=54-	=54-	=54-	=54-	=54-	=54-	=54-	=54-	=54-
!LO:SIC:v:t=custos FF	!	!	!	!	!	!	!	!	!	!	!	!	!
2C/	4 3	8C/L	4fny\	2g/	4ffny\	2r	.	0r	.	1r	.	2r	.
!LO:LB:g=original	!	!	!	!	!	!	!	!	!	!	!	!	!
.	.	8BB/J	.	.	.	.	.	.	.	.	.	.	.
.	.	8C/L	4c/	.	4ee\	.	.	.	.	.	.	.	.
.	.	8CC/J	.	.	.	.	.	.	.	.	.	.	.
2FFny/	.	2FF/	2c/	2a/	2ff\	4r	.	.	.	.	.	8r	.
.	.	.	.	.	.	.	.	.	.	.	.	8cc\	non
.	.	.	.	.	.	8r	.	.	.	.	.	8a\	con-
.	.	.	.	.	.	8F\	con-	.	.	.	.	8a\	-fun-
4D/	.	1r	1r	1r	1r	8D\	-fun-	.	.	2r	.	8f/	-de-
.	.	.	.	.	.	8D\	-de-	.	.	.	.	8f/	-tur
2BB/	6 5	.	.	.	.	8BB/	-tur	.	.	.	.	8d/	non
!	!	!	!	!	!	!	!	!	!	!	!	!LO:SIC:v:t=custos b-	!
.	.	.	.	.	.	8BB/	in	.	.	.	.	8dd\	non
!	!	!	!	!	!	!	!	!	!	!	!	!LO:LB:g=original	!
.	.	.	.	.	.	8BB/	ae-	.	.	8r	.	8b-\	con-
.	.	.	.	.	.	8BB/	-ter-	.	.	8g\	non	8b-\	-fun-
!	!	!	!	!	!	!LO:LB:g=original	!	!	!	!	!	!	!
!	!	!	!	!	!	!LO:TX:t=P:problem:kreska pseudotaktowa	!	!	!	!	!	!	!
2C/	6 5	.	.	.	.	4C/	-num	.	.	8e\	con-	8g\	-de-
.	.	.	.	.	.	.	.	.	.	8e\	-fun-	8g\	-tur
=55-	=55-	=55-	=55-	=55-	=55-	=55-	=55-	=55-	=55-	=55-	=55-	=55-	=55-
.	.	0r	0r	0r	0r	4C/	in	8r	.	8a\	-de-	8cc\	in
!	!	!	!	!	!	!	!	!	!	!LO:SIC:v:t=custos f	!	!	!
.	.	.	.	.	.	.	.	8c\	non	8g\	-tur	8b-\	ae-
!	!	!	!	!	!	!	!	!	!	!LO:LB:g=original	!	!	!
4.D/	6	.	.	.	.	4.D/	ae-	8A\	con-	8fny\	in	8a\	-ter-
.	.	.	.	.	.	.	.	8A\	-fun-	8g\	ae-	8a\	-num
.	.	.	.	.	.	.	.	16B-\LL	-de-	(4b-\	-ter-	8dd\	in
.	.	.	.	.	.	.	.	16c\	-tur	.	.	.	.
8E-X\	.	.	.	.	.	8E-X\	-ter-	16d\	in	.	.	8cc\	ae-
.	.	.	.	.	.	.	.	16B-\JJ	ae-	.	.	.	.
!	!	!	!	!	!	!LO:TX:t=P:problem:kreska pseudotaktowa	!	!	!	!LO:TX:t=P:problem:kreska pseudotaktowa	!	!	!
4Fny\	4 3	.	.	.	.	4F\	-num	4f\	-ter-	4a\)	.	4cc\	-ter-
4B-\	.	.	.	.	.	4BB-/	q(ui)	4f\	-num	4b-\	-num	4dd\	-num
4G\	.	.	.	.	.	8G\	ſpe-	8B-\L	qvi	8b-\	qvi	8dd\	qvi
.	.	.	.	.	.	8G\	-ra-	8G/J	ſpe-	8b-\	ſpe-	8dd\	ſpe-
4D\	.	.	.	.	.	8E-X\	-bit	4c\	-ra-	4b-\	-ra-	4cc\	-ra-
.	.	.	.	.	.	8C/	q(ui)	.	.	.	.	.	.
4E-X\	6	.	.	.	.	8F\	ſpe-	8A/L	-bit	8a\	-bit	8dd\	-bit
.	.	.	.	.	.	8E-X\	-ra-	8A/J	in	8a\	in	8dd\	in
=56-	=56-	=56-	=56-	=56-	=56-	=56-	=56-	=56-	=56-	=56-	=56-	=56-	=56-
!	!	!LO:SIC:v:t=custos G	!LO:SIC:v:t=custos g	!LO:SIC:v:t=custos cc	!	!	!	!	!	!	!	!	!
4D/	6 5	1r	1r	1r	1r	4D/	-bit	4d\	e-	4a\	e-	4b-\	e-
!	!	!	!	!	!LO:PB:g=original	!	!	!	!	!	!	!	!
!	!	!	!	!LO:PB:g=original	!	!	!	!	!	!	!	!	!
!	!	!	!LO:PB:g=original	!	!	!	!	!	!	!	!	!	!
!	!	!LO:PB:g=original	!	!	!	!	!	!	!	!	!	!	!
4E-X\	6	.	.	.	.	8E-X\	in	8d\	-o	8g\	-o	8b-\	-o
!	!	!	!	!	!	!	!	!LO:SIC:v:t=custos e	!	!	!	!LO:SIC:v:t=custos a	!
.	.	.	.	.	.	8D/	.	8d\	in	8g\	in	8b-\	in
!	!	!	!	!	!	!	!	!LO:LB:g=original	!	!	!	!LO:LB:g=original	!
4C/	.	.	.	.	.	(4C/	e-	(4e\	e-	(4g\	e-	2a\	e-
!LO:TX:a:t=P:problem:# above	!	!	!	!	!	!	!	!	!	!	!	!	!
4D#X/	4	.	.	.	.	4D/)	.	4d\)	.	4f#X\)	.	.	.
!LO:TX:a:t=P:problem:# above	!	!	!	!	!	!	!	!	!	!	!	!	!
2G#X\	.	4r	8r	2r	4r	2GG/	-o	2d\	-o	2g\	-o	2b#X\	-o
.	.	.	8g\L	.	.	.	.	.	.	.	.	.	.
.	.	8r	8e\	.	8r	.	.	.	.	.	.	.	.
.	.	8G\	8e\J	.	8gg\	.	.	.	.	.	.	.	.
2A\	.	8A\L	8c/L	8r	8ee\L	2r	.	2r	.	2r	.	2r	.
.	.	8A\	8c/	8cc\L	8ee\	.	.	.	.	.	.	.	.
.	.	8A\	8c/	8a/	8aa\	.	.	.	.	.	.	.	.
!	!	!	!	!LO:TX:t=P:problem:kreska pseudotaktowa	!LO:TX:t=P:problem:kreska pseudotaktowa	!	!	!	!	!	!	!	!
.	.	8A\J	8c/J	8a/J	8aa\J	.	.	.	.	.	.	.	.
=57-	=57-	=57-	=57-	=57-	=57-	=57-	=57-	=57-	=57-	=57-	=57-	=57-	=57-
2B#X\	.	8B#X\L	2d\	8d/L	8ff#X\L	0r	.	0r	.	0r	.	0r	.
.	.	8Bny\	.	16dd\L	8ff#\	.	.	.	.	.	.	.	.
.	.	.	.	16cc\JJ	.	.	.	.	.	.	.	.	.
.	.	8B\	.	16b#X\LL	8dd\	.	.	.	.	.	.	.	.
.	.	.	.	16cc\JJ	.	.	.	.	.	.	.	.	.
.	.	8B\J	.	16a/LL	8dd\J	.	.	.	.	.	.	.	.
.	.	.	.	16b#X/JJ	.	.	.	.	.	.	.	.	.
4.c\	.	4.c\	4.c/	8g/L	4.ee\	.	.	.	.	.	.	.	.
.	.	.	.	8g/	.	.	.	.	.	.	.	.	.
.	.	.	.	8g/	.	.	.	.	.	.	.	.	.
!LO:SIC:v:t=custos A	!	!	!	!LO:TX:t=P:problem:kreska pseudotaktowa	!LO:TX:t=P:problem:kreska pseudotaktowa	!	!	!	!	!	!	!	!
8B#X\	.	8B#X\	8d\	8g/J	8dd\	.	.	.	.	.	.	.	.
!LO:LB:g=original	!	!	!	!	!	!	!	!	!	!	!	!	!
2A\	7 6	2A\	4e\	4g/	2cc\	.	.	.	.	.	.	.	.
.	.	.	4a\	4f#X/	.	.	.	.	.	.	.	.	.
!LO:TX:a:t=P:problem:# above	!	!	!	!	!LO:N:acc=#:global	!	!	!	!	!	!	!	!
2.G#X\	.	2.G\	4d\	4g/	4bn/	.	.	.	.	.	.	.	.
.	.	.	8d\L	8g/L	8b/L	.	.	.	.	.	.	.	.
!	!	!	!	!LO:TX:t=P:problem:kreska pseudotaktowa	!LO:TX:t=P:problem:kreska pseudotaktowa	!	!	!	!	!	!	!	!
.	.	.	8d\J	8g/J	8b/J	.	.	.	.	.	.	.	.
=58-	=58-	=58-	=58-	=58-	=58-	=58-	=58-	=58-	=58-	=58-	=58-	=58-	=58-
.	.	.	4B-/	4g/	4dd\	0r	.	0r	.	0r	.	0r	.
4F\	6	4Fny\	4A/	8a/L	8dd\L	.	.	.	.	.	.	.	.
.	.	.	.	8a/J	8dd\J	.	.	.	.	.	.	.	.
!	!	!	!	!LO:TX:t=P:problem:kreska pseudotaktowa	!	!	!	!	!	!	!	!	!
2Eny\	6\	2E\	8B-/L	2g/	4dd\	.	.	.	.	.	.	.	.
.	.	.	8G/J	.	.	.	.	.	.	.	.	.	.
!	!	!	!	!	!LO:TX:t=P:problem:kreska pseudotaktowa	!	!	!	!	!	!	!	!
.	.	.	4G/	.	4cc#X\	.	.	.	.	.	.	.	.
!LO:TX:a:t=P:problem:# above	!	!	!	!	!	!	!	!	!	!	!	!	!
4D#X/	.	4D/	4A/	4f#X/	2dd\	.	.	.	.	.	.	.	.
4BB/	.	8BB/L	8d\L	8bny/L	.	.	.	.	.	.	.	.	.
.	.	8BB/J	8d\J	8b/J	.	.	.	.	.	.	.	.	.
2GG/	.	4.GG/	4G/	4b/	8r	.	.	.	.	.	.	.	.
.	.	.	.	.	8gg\L	.	.	.	.	.	.	.	.
!	!	!	!LO:TX:t=P:problem:kreska pseudotaktowa	!	!	!	!	!	!	!	!	!	!
.	.	.	4G/	4b/	8dd\	.	.	.	.	.	.	.	.
!	!	!	!	!LO:LB:g=original	!	!	!	!	!	!	!	!	!
!	!	!LO:SIC:v:t=custos AA	!	!	!LO:TX:t=P:problem:kreska pseudotaktowa	!	!	!	!	!	!	!	!
.	.	8GG/	.	.	8dd\J	.	.	.	.	.	.	.	.
!	!	!LO:LB:g=original	!	!	!	!	!	!	!	!	!	!	!
=59-	=59-	=59-	=59-	=59-	=59-	=59-	=59-	=59-	=59-	=59-	=59-	=59-	=59-
2AA/	.	8AA/L	8c/L	8a/L	8ccny\L	0r	.	0r	.	0r	.	0r	.
!	!	!	!LO:SIC:v:t=custos A	!	!	!	!	!	!	!	!	!	!
.	.	8AA/	8A/J	16cc/L	8cc\	.	.	.	.	.	.	.	.
!	!	!	!LO:LB:g=original	!	!	!	!	!	!	!	!	!	!
.	.	.	.	16b/JJ	.	.	.	.	.	.	.	.	.
.	.	8AA/	4A/	8a/L	8cc\	.	.	.	.	.	.	.	.
.	.	8AA/J	.	8a/J	8cc\J	.	.	.	.	.	.	.	.
2BB/	.	8BB/L	4d\	8fny/L	8dd\L	.	.	.	.	.	.	.	.
.	.	8BB/	.	8f/	8dd\	.	.	.	.	.	.	.	.
.	.	8BB/	4d\	8ff\	8dd\	.	.	.	.	.	.	.	.
!	!	!	!	!LO:TX:t=P:problem:kreska pseudotaktowa	!	!	!	!	!	!	!	!	!
.	.	8BB/J	.	8dd\J	8dd\J	.	.	.	.	.	.	.	.
!	!	!	!	!	!LO:LB:g=original	!	!	!	!	!	!	!	!
4C/	.	16C/LL	4G/	8cc\L	4ee\	.	.	.	.	.	.	.	.
.	.	16D/	.	.	.	.	.	.	.	.	.	.	.
.	.	16C/	.	8cc\	.	.	.	.	.	.	.	.	.
.	.	16BB/JJ	.	.	.	.	.	.	.	.	.	.	.
8AA/L	.	8AA/L	8A/L	8cc\	2ffny\	.	.	.	.	.	.	.	.
8BB/J	.	8BB/J	8F/J	8dd\J	.	.	.	.	.	.	.	.	.
2C/	4 3	8C/L	2c/	2cc\	.	.	.	.	.	.	.	.	.
.	.	8BB/J	.	.	.	.	.	.	.	.	.	.	.
.	.	8C/L	.	.	4ee\	.	.	.	.	.	.	.	.
.	.	8CC/J	.	.	.	.	.	.	.	.	.	.	.
=60-	=60-	=60-	=60-	=60-	=60-	=60-	=60-	=60-	=60-	=60-	=60-	=60-	=60-
2FF/	.	2FF/	2c/	2a/	2ff\	2r	.	2r	.	8r	.	8r	.
.	.	.	.	.	.	.	.	.	.	8a\	non	8b-\	non
.	.	.	.	.	.	.	.	.	.	8fny\	con-	8a\	con-
!	!	!	!	!	!	!	!	!	!	!LO:SIC:v:t=custos d	!	!	!
.	.	.	.	.	.	.	.	.	.	8f\	-fun-	8a\	-fun-
!	!	!	!	!	!	!	!	!	!	!LO:LB:g=original	!	!	!
2BB/	.	2r	2r	2r	2r	4r	.	8r	.	8d\	-de-	8f/	-de-
.	.	.	.	.	.	.	.	8B-/L	non	8d\	-tur	8f/	-tur
.	.	.	.	.	.	8r	.	8G\	con-	8g\	in	8b-\	in
.	.	.	.	.	.	8BB-/	non	8G\J	-fun-	8f\	ae-	8a\	ae-
!	!	!	!	!	!	!LO:LB:g=original	!	!	!	!	!	!	!
4C/	.	1r	1r	1r	1r	8C/	con-	8c\L	-de-	8e\	-ter-	8g/	-ter-
.	.	.	.	.	.	8C/	-fun-	8B-\J	.	8e\	-num	8g/	-num
4FF/	.	.	.	.	.	8GG/	-de-	8A/L	-tur	8f\	in	8a\	in
.	.	.	.	.	.	8FF/	-tur	8A/J	in	8d\	ae-	8f/	ae-
4GG/	.	.	.	.	.	8GG/	in	(4d\	ae-	4.e\	-ter-	16e/LL	-ter-
.	.	.	.	.	.	.	.	.	.	.	.	16d/	.
.	.	.	.	.	.	8GG/	ae-	.	.	.	.	16e/	.
.	.	.	.	.	.	.	.	.	.	.	.	16f/JJ	.
4AA/	.	.	.	.	.	4AA/	-ter-	4A/)	-ter-	.	.	4e/	.
.	.	.	.	.	.	.	.	.	.	8c#X/	.	.	.
=61-	=61-	=61-	=61-	=61-	=61-	=61-	=61-	=61-	=61-	=61-	=61-	=61-	=61-
!LO:TX:a:t=P:problem:# above	!	!	!	!	!	!	!	!	!	!	!	!	!
2D#X/	.	4r	1r	1r	4r	2D/	-num	2A/	-num	2d\	-num	2d/	-num
.	.	8D/L	.	.	8ff#X\L	.	.	.	.	.	.	.	.
.	.	8D/J	.	.	8ff#\J	.	.	.	.	.	.	.	.
2E\	6	4E\	.	.	4gg\	2r	.	2r	.	2r	.	2r	.
.	.	8E\L	.	.	8gg\L	.	.	.	.	.	.	.	.
!	!	!	!	!	!LO:TX:t=P:problem:kreska pseudotaktowa	!	!	!	!	!	!	!	!
.	.	8E\J	.	.	8gg\J	.	.	.	.	.	.	.	.
2F#X\	6	2F#X\	2r	4r	2aa\	1r	.	1r	.	1r	.	1r	.
.	.	.	.	8a/L	.	.	.	.	.	.	.	.	.
.	.	.	.	8a/J	.	.	.	.	.	.	.	.	.
!LO:TX:a:t=P:problem:# above	!	!LO:SIC:v:t=custos E	!	!	!LO:TX:t=P:problem:kreska pseudotaktowa	!	!	!	!	!	!	!	!
2G#X\	.	2G\	4r	4b#X/	2dd\	.	.	.	.	.	.	.	.
!	!	!LO:LB:g=original	!	!	!	!	!	!	!	!	!	!	!
.	.	.	8G/L	8bny/L	.	.	.	.	.	.	.	.	.
!	!	!	!	!LO:TX:t=P:problem:kreska pseudotaktowa	!	!	!	!	!	!	!	!	!
.	.	.	8G/J	8b/J	.	.	.	.	.	.	.	.	.
=62-	=62-	=62-	=62-	=62-	=62-	=62-	=62-	=62-	=62-	=62-	=62-	=62-	=62-
2E\	6\	4E\	4G/	2cc#X\	4r	0r	.	0r	.	0r	.	0r	.
.	.	4E\	8G/L	.	8ee\L	.	.	.	.	.	.	.	.
.	.	.	8G/J	.	8ee\J	.	.	.	.	.	.	.	.
!LO:SIC:v:t=custos D	!	!	!	!	!	!	!	!	!	!	!	!	!
!LO:TX:a:t=P:problem:# above	!	!	!	!	!	!	!	!	!	!	!	!	!
2D#X/	.	2.D/	4G/	4.dd\	4ff#X\	.	.	.	.	.	.	.	.
!LO:LB:g=original	!	!	!	!	!	!	!	!	!	!	!	!	!
.	.	.	4A/	.	8ff#\L	.	.	.	.	.	.	.	.
!	!	!	!	!LO:TX:t=P:problem:kreska pseudotaktowa	!LO:TX:t=P:problem:kreska pseudotaktowa	!	!	!	!	!	!	!	!
.	.	.	.	8dd\	8ff#\J	.	.	.	.	.	.	.	.
4Dny/	.	.	2A/	4.ee\	4.gg\	.	.	.	.	.	.	.	.
4C/	.	4C/	.	.	.	.	.	.	.	.	.	.	.
.	.	.	.	8ee\	8gg\	.	.	.	.	.	.	.	.
2BB#X/	.	2BB#X/	2B#X/	2dd\	4aa\	.	.	.	.	.	.	.	.
!	!	!	!	!LO:LB:g=original	!LO:TX:t=P:problem:kreska pseudotaktowa	!	!	!	!	!	!	!	!
.	.	.	.	.	4gg#X\	.	.	.	.	.	.	.	.
=63-	=63-	=63-	=63-	=63-	=63-	=63-	=63-	=63-	=63-	=63-	=63-	=63-	=63-
!	!	!	!	!	!	!	!	!	!	!	!	!LO:SIC:v:t=custos dd	!
4AA/	6	8AA/L	8c#X/L	4cc#X\	4aa\	0r	.	1r	.	0r	.	1r	.
!	!	!	!	!	!	!	!	!	!	!	!	!LO:LB:g=original	!
.	.	8A\J	8G/J	.	.	.	.	.	.	.	.	.	.
4Fny\	.	16Fny\LL	16a\LL	8r	8r	.	.	.	.	.	.	.	.
.	.	16G\	16b-\	.	.	.	.	.	.	.	.	.	.
.	.	16F\	16a\	8dd\	8aa\	.	.	.	.	.	.	.	.
!	!	!	!	!	!LO:LB:g=original	!	!	!	!	!	!	!	!
!	!	!	!LO:SIC:v:t=custos f	!	!	!	!	!	!	!	!	!	!
.	.	16E\JJ	16g\JJ	.	.	.	.	.	.	.	.	.	.
!	!	!	!LO:LB:g=original	!	!	!	!	!	!	!	!	!	!
4D\	.	8D/L	8f\L	16dd\LL	16ffny\LL	.	.	.	.	.	.	.	.
.	.	.	.	16ee\	16ggny\	.	.	.	.	.	.	.	.
.	.	8D/J	8f\J	16dd\	16ff\	.	.	.	.	.	.	.	.
.	.	.	.	16cc#\JJ	16ee\JJ	.	.	.	.	.	.	.	.
8Gny\L	.	16G\LL	8g\L	8b#X/L	8dd\L	.	.	.	.	.	.	.	.
.	.	16A\	.	.	.	.	.	.	.	.	.	.	.
!	!	!	!	!LO:TX:t=P:problem:kreska pseudotaktowa	!LO:TX:t=P:problem:kreska pseudotaktowa	!	!	!	!	!	!	!	!
8F\J	.	16G\	8g\J	8bny/J	8dd\J	.	.	.	.	.	.	.	.
.	.	16F\JJ	.	.	.	.	.	.	.	.	.	.	.
4E\	6	16E\LL	8cny\L	8ee\L	8gg\L	.	.	2r	.	.	.	2r	.
.	.	16F\	.	.	.	.	.	.	.	.	.	.	.
.	.	16G\	8A/J	16ee\L	16gg\L	.	.	.	.	.	.	.	.
.	.	16E\JJ	.	16dd\JJ	16ff\JJ	.	.	.	.	.	.	.	.
!LO:TX:a:t=P:problem:# above	!	!	!	!	!	!	!	!	!	!	!	!	!
4A#X\	.	8A\L	4A/	8.dd\L	8.ee\L	.	.	.	.	.	.	.	.
.	.	8AA/J	.	.	.	.	.	.	.	.	.	.	.
.	.	.	.	16cc#\Jk	16dd\Jk	.	.	.	.	.	.	.	.
2D/	6 5	2D/	2A/	2dd#X\	2dd\	.	.	4r	.	.	.	8r	.
.	.	.	.	.	.	.	.	.	.	.	.	8dd\	non
.	.	.	.	.	.	.	.	8D/L	qvi	.	.	8b-\	con-
.	.	.	.	.	.	.	.	8D/J	ſpe-	.	.	8b-\	-fun-
=64-	=64-	=64-	=64-	=64-	=64-	=64-	=64-	=64-	=64-	=64-	=64-	=64-	=64-
2E\	6	0r	0r	0r	0r	1r	.	4E/	-ra-	8r	.	8g\	-de-
.	.	.	.	.	.	.	.	.	.	8g\	non	8g\	-tur
.	.	.	.	.	.	.	.	8E/	-bit	8e\	con-	8cc\	in
!	!	!	!	!	!	!	!	!LO:SIC:v:t=custos F#	!	!	!	!	!
.	.	.	.	.	.	.	.	8E/	in	8e\	-fun-	8b-\	ae-
!	!	!	!	!	!	!	!	!LO:LB:g=original	!	!	!	!	!
2F#X\	6	.	.	.	.	.	.	2F#X/	e-	2d\	-de-	8a\L	-ter-
.	.	.	.	.	.	.	.	.	.	.	.	16b-\L	.
.	.	.	.	.	.	.	.	.	.	.	.	16cc\JJ	.
.	.	.	.	.	.	.	.	.	.	.	.	8dd\L	.
.	.	.	.	.	.	.	.	.	.	.	.	16cc\L	.
.	.	.	.	.	.	.	.	.	.	.	.	16dd\JJ	.
!LO:TX:a:t=P:problem:# above	!	!	!	!	!	!	!	!	!	!	!	!	!
4G#X\	.	.	.	.	.	4r	.	2G/	-o	8d\	-tur	4b#X\	-num
*	*	*	*	*	*	*	*	*	*	*	*ij	*	*
.	.	.	.	.	.	.	.	.	.	8g\	con-	.	.
4GG/	6	.	.	.	.	8GG/	qui	.	.	8e\	-fun-	8bny\	qvi
.	.	.	.	.	.	8GG/	ſpe-	.	.	8e\	-de-	8b\	ſpe-
!	!	!	!	!	!	!	!	!	!	!LO:LB:g=original	!	!	!
2AA/	6 5	.	.	.	.	4AA/	-ra-	2r	.	8cny\L	-tur	4cc\	-ra-
*	*	*	*	*	*	*	*	*	*	*	*Xij	*	*
.	.	.	.	.	.	.	.	.	.	8c\	in	.	.
.	.	.	.	.	.	8AA/	-bit	.	.	8f\	.	8cc\	-bit
.	.	.	.	.	.	8AA/	in	.	.	8e\J	ae-	8cc\	in
=65-	=65-	=65-	=65-	=65-	=65-	=65-	=65-	=65-	=65-	=65-	=65-	=65-	=65-
!	!	!	!	!	!	!	!	!	!	!	!	!LO:SIC:v:t=custos ee	!
2BB#X/	6	0r	0r	0r	0r	2BB#X/	e-	2r	.	8d\L	-ter-	2dd\	e-
!	!	!	!	!	!	!	!	!	!	!	!	!LO:LB:g=original	!
.	.	.	.	.	.	.	.	.	.	16e\L	.	.	.
.	.	.	.	.	.	.	.	.	.	16f\JJ	.	.	.
.	.	.	.	.	.	.	.	.	.	8g\L	.	.	.
.	.	.	.	.	.	.	.	.	.	16f\L	.	.	.
.	.	.	.	.	.	.	.	.	.	16g\JJ	.	.	.
2C/	6 5	.	.	.	.	4C/	-o	4r	.	2e\	-num	8ee\	-o
.	.	.	.	.	.	.	.	.	.	.	.	8ee\	non
*	*	*	*	*	*	*	*ij	*	*	*	*	*	*
.	.	.	.	.	.	8C/L	qui	8r	.	.	.	8cc\	con-
.	.	.	.	.	.	8C/J	ſpe-	8A/	non	.	.	8cc\	-fun-
2D/	.	.	.	.	.	4D/	-ra-	8F#X/L	con-	1r	.	8a\	-de-
.	.	.	.	.	.	.	.	8F#/J	-fun-	.	.	8a\	-tur
.	.	.	.	.	.	8D/	-bit	8B#X\L	-de-	.	.	8dd\	in
.	.	.	.	.	.	8D/	in	8A\J	-tur	.	.	8cc\	ae-
!	!	!	!	!	!	!LO:LB:g=original	!	!	!	!	!	!	!
2E\	.	.	.	.	.	4Eny\	e-	8G/L	in	.	.	8b#X\L	-ter-
.	.	.	.	.	.	.	.	16A/L	.	.	.	16cc\L	.
.	.	.	.	.	.	.	.	16B#X/JJ	ae-	.	.	16dd\JJ	.
.	.	.	.	.	.	8E\	-o	8c\L	-ter-	.	.	8ee\L	.
*	*	*	*	*	*	*	*Xij	*	*	*	*	*	*
.	.	.	.	.	.	8E\	in	16Bny\L	.	.	.	16dd\L	.
.	.	.	.	.	.	.	.	16c\JJ	.	.	.	16ee\JJ	.
=66-	=66-	=66-	=66-	=66-	=66-	=66-	=66-	=66-	=66-	=66-	=66-	=66-	=66-
4.Fny\	.	1r	2r	1r	2r	4.F\	e-	8A/L	.	2r	.	8cc\	.
.	.	.	.	.	.	.	.	8A/J	-num	.	.	8cc\	-num
.	.	.	.	.	.	.	.	8d\L	.	.	.	8ff\	in
!LO:SIC:v:t=custos A	!	!	!	!	!	!	!	!	!	!	!	!	!
8Gny\	.	.	.	.	.	8G\	.	8d\J	in	.	.	8ee\	ae-
!LO:LB:g=original	!	!	!	!	!	!	!	!	!	!	!	!	!
!LO:TX:a:t=P:problem:# above	!	!	!	!	!	!	!	!	!	!	!	!	!
4A#X\	4	.	8r	.	4r	4A\	.	(4d\	ae-	4r	.	2ee\	-ter-
.	.	.	8e\L	.	.	.	.	.	.	.	.	.	.
!LO:TX:a:t=P:problem:# above	!	!	!	!	!	!	!	!LO:SIC:v:t=custos d	!	!	!	!	!
4AA#X/	.	.	8c#X\	.	8r	4AA/	.	4c#X\)	-ter-	8r	.	.	.
!	!	!	!	!	!	!	!	!LO:LB:g=original	!	!	!	!	!
!	!	!	!	!	!LO:TX:t=P:problem:kreska pseudotaktowa	!	!	!	!	!	!	!	!
.	.	.	8c#\J	.	8aa\	.	.	.	.	8c#X/	non	.	.
4D/	.	8r	8d\L	4r	16ff\LL	4D/	-o	4d\	-num	8d\	con-	8dd\	-num
.	.	.	.	.	16gg\	.	.	.	.	.	.	.	.
!	!	!	!	!	!	!	!	!	!	!	!	!LO:SIC:v:t=custos f	!
.	.	16D/LL	8d\J	.	16ff\	.	.	.	.	8d\	-fun-	8f/	non
!	!	!LO:SIC:v:t=custos BB-	!	!	!	!	!	!	!	!	!	!LO:LB:g=original	!
.	.	16C/JJ	.	.	16ee\JJ	.	.	.	.	.	.	.	.
!	!	!LO:LB:g=original	!	!	!	!	!	!	!	!	!	!	!
4BBny/	.	16BBny/LL	8r	8r	8dd\L	4r	.	8r	.	8d\	-de-	8f/	con-
.	.	16C/	.	.	.	.	.	.	.	.	.	.	.
.	.	16BB/	16f\LL	8ddny\	8dd\J	.	.	8B-\	non	8d\	-tur	8f/	-fun-
.	.	16AA/JJ	16f\JJ	.	.	.	.	.	.	.	.	.	.
4GG/	.	8GG/L	8g\L	16b/LL	16gg\LL	4r	.	8B-\	con-	8r	.	8g/	-de-
.	.	.	.	16ccny/	16aa\	.	.	.	.	.	.	.	.
.	.	8GG/J	8g\J	16b/	16gg\	.	.	8B-\	-fun-	16d\	in	8g/	-tur
.	.	.	.	16a/JJ	16ff\JJ	.	.	.	.	16d\	ae-	.	.
4C/	.	8C/L	8r	8g/L	8ee\L	8r	.	8c#\	-de-	8e\	-ter-	8r	.
!	!	!	!	!	!LO:TX:t=P:problem:kreska pseudotaktowa	!	!	!	!	!	!	!	!
.	.	8C/J	8e\	8g/J	8ee\J	8C/	non	8c#\	-tur	8e\	-num	16g/LL	in
!	!	!	!	!	!	!	!	!	!	!LO:LB:g=original	!	!	!
.	.	.	.	.	.	.	.	.	.	.	.	16g/JJ	ae-
=67-	=67-	=67-	=67-	=67-	=67-	=67-	=67-	=67-	=67-	=67-	=67-	=67-	=67-
4AAny/	6	8r	16a\LL	16cc\LL	8ff#X\L	8AA/	con-	4r	.	8r	.	8a\	-ter-
.	.	.	16b-\	16dd\	.	.	.	.	.	.	.	.	.
.	.	16AA/LL	16a\	16cc\	8ff#\J	8AA/	-fun-	.	.	8cny\	non	8a\	-num
.	.	16AA/JJ	16g\JJ	16b\JJ	.	.	.	.	.	.	.	.	.
4D/	.	8D/L	8f#X\L	8a/L	8r	8D\	-de-	8r	.	8d\	con-	8r	.
!	!	!	!	!	!LO:TX:t=P:problem:# above	!	!	!	!	!	!	!	!
.	.	8D/J	8f#\J	8a/J	16ff#X\LL	8D\	-tur	16d\	in	8d\	-fun-	8a\	non
!	!	!	!	!LO:LB:g=original	!	!	!	!	!	!	!	!	!
.	.	.	.	.	16ff#\JJ	.	.	16d\	ae-	.	.	.	.
4GG/	.	8r	8r	8dd\L	8gg\L	4GG/	in	8cny\	-ter-	8d\	-de-	8bny\	con-
.	.	8GG/L	8d\L	8dd\J	8gg\	.	.	8B-\	-num	8f#X\	-tur	8b\	-fun-
4FF#X/	.	8FF#X/	8a\	8r	8aa\	4FF#X/	ae-	8A\	in	8a\	in	8dd\	-de-
!	!	!	!LO:SIC:v:t=custos d	!	!	!	!	!	!	!	!	!	!
.	.	8FF#/J	8a\J	16dd\LL	8aa\J	.	.	8A\	ae-	8A/	ae-	8dd\	-tur
!	!	!	!	!	!LO:LB:g=original	!	!	!	!	!	!	!	!
!	!	!	!LO:LB:g=original	!LO:TX:t=P:problem:kreska pseudotaktowa	!	!	!	!	!	!	!	!	!
.	.	.	.	16dd\JJ	.	.	.	.	.	.	.	.	.
1GG	.	1GG	8d\L	1dd	1gg	1GG	-ter-	1B-	-ter-	16d\LL	-ter-	4g/	in
.	.	.	.	.	.	.	.	.	.	16e\JJ	.	.	.
.	.	.	8d\	.	.	.	.	.	.	16c\LL	.	.	.
.	.	.	.	.	.	.	.	.	.	16d\JJ	.	.	.
.	.	.	8d\	.	.	.	.	.	.	16B-/LL	.	4dd\	ae-
.	.	.	.	.	.	.	.	.	.	16c/	.	.	.
.	.	.	8g\J	.	.	.	.	.	.	16A/	.	.	.
.	.	.	.	.	.	.	.	.	.	16B-/JJ	.	.	.
.	.	.	2g\	.	.	.	.	.	.	4G/	.	2dd\	-ter-
.	.	.	.	.	.	.	.	.	.	4d\	-num	.	.
=68-	=68-	=68-	=68-	=68-	=68-	=68-	=68-	=68-	=68-	=68-	=68-	=68-	=68-
0D	.	0DD	0a	0dd	0ff#X	0D	-num	0A	-num	0d	.	0dd	-num
=-	=-	=-	=-	=-	=-	=-	=-	=-	=-	=-	=-	=-	=-
*-	*-	*-	*-	*-	*-	*-	*-	*-	*-	*-	*-	*-	*-
!!!system-decoration: s1,s2,s3,s4[(s5,s6,s7)]s8,s9
!!!ENC: Anastazja Marusiak
!!!END: 2022-01-29
!!!AIN: 1 alto 1 bass 1 organ 1 soprn 1 tenor 2 viola 2 violn
!!!ENC: Julita Ruszuk
!!!END: 2022-02-19
